!!!!SEGMENT: pl-cz--iii-116--001_dankowski-adalbert--vesperae-solenne-dixit-dominus.krn
!!!cenid: 18xx:817
!!!COM: Dankowski, Adalbert
!!!COM-rismid: pe30000793
!!!CDT: ~1760-~1836
!!!CNT: Polish
!!!OPR: Vesperae Solenne
!!!OTL: Dixit Dominus
!!!OMV: 001
!!!PDT: 1839
!!!AGN: Sacred; Vespers
!!!SMS-siglum: PL-CZ
!!!SMS-shelfmark: III-116
!!!SMS-shelfwork: 001-001 M
!!!SMS-variant:
!!!SMS-altvar:
!!!NIFC-rismid: 300000114
!!!URL-scan: http://repozytorium.nifc.pl/skany/pl-cz-nut--iii-116
!!!ONB-nifc: UWAGA: części Vesperae: Dixit Dominus, Laudate pueri, Laetatus sum, Nisi Dominus, Magnificat
!!!AIN: 1 alto 1 bass 2 cor 1 organ 1 soprn 1 tenor 1 timpa 1 tromp 2 violn
!!!key: D
**kern	**fba	**dynam	**kern	**dynam	**kern	**dynam	**kern	**text	**kern	**text	**kern	**text	**kern	**text	**kern	**kern	**kern	**kern
*	*	*	*group3	*	*group3	*	*group2	*	*group2	*	*group2	*	*group2	*	*	*group1	*group1	*group1
*part11	*part11	*part11	*part10	*part10	*part9	*part9	*part8	*part8	*part7	*part7	*part6	*part6	*part5	*part5	*part4	*part3	*part2	*part1
*staff11	*	*	*staff10	*	*staff9	*	*staff8	*staff8	*staff7	*staff7	*staff6	*staff6	*staff5	*staff5	*staff4	*staff3	*staff2	*staff1
*I"Organ	*	*	*I"Violino 2do	*	*I"Violino 1mo	*	*I"Baſso	*	*I"Tenor	*	*I"Alto.	*	*I"Cant	*	*I"Tympan	*I"Clarino Principalo. Ex D.	*I"Corno. 2do ex D.	*I"Corno Obligato 1mo ex D
*I'org	*	*	*I'vl 2	*	*I'vl 1	*	*I'B	*	*I'T	*	*I'A	*	*I'S	*	*I'timp	*I'clno princ	*I'cor 2 in D	*I'cor 1 in D
*Iorgan	*	*	*Ivioln	*	*Ivioln	*	*Ibass	*	*Itenor	*	*Ialto	*	*Isoprn	*	*Itimpa	*Itromp	*Icor	*Icor
*ICklav	*	*	*ICstr	*	*ICstr	*	*ICvox	*	*ICvox	*	*ICvox	*	*ICvox	*	*ICidio	*ICbras	*ICbras	*ICbras
*IGcont	*	*	*	*	*	*	*	*	*	*	*	*	*	*	*	*	*	*
*clefF4	*	*	*clefG2	*	*clefG2	*	*clefF4	*	*clefC4	*	*clefC3	*	*clefC1	*	*clefF4	*clefG2	*clefG2	*clefG2
*	*	*	*	*	*	*	*	*	*	*	*	*	*	*	*ITrd-1c-2	*ITrd-1c-2	*ITrd6c10	*ITrd6c10
*k[f#c#]	*	*	*k[f#c#]	*	*k[f#c#]	*	*k[f#c#]	*	*k[f#c#]	*	*k[f#c#]	*	*k[f#c#]	*	*k[f#c#]	*k[f#c#]	*k[f#c#]	*k[f#c#]
*D:	*	*	*D:	*	*D:	*	*D:	*	*D:	*	*D:	*	*D:	*	*D:	*D:	*D:	*D:
*M4/4	*	*	*M4/4	*	*M4/4	*	*M4/4	*	*M4/4	*	*M4/4	*	*M4/4	*	*M4/4	*M4/4	*M4/4	*M4/4
*met(c)	*	*	*met(c)	*	*met(c)	*	*met(c)	*	*met(c)	*	*met(c)	*	*met(c)	*	*met(c)	*met(c)	*met(c)	*met(c)
*all\right	*	*	*all\right	*	*all\right	*	*all\right	*	*all\right	*	*all\right	*	*all\right	*	*all\right	*all\right	*all\right	*all\right
=1	=1	=1	=1	=1	=1	=1	=1	=1	=1	=1	=1	=1	=1	=1	=1	=1	=1	=1
!	!	!	!	!	!LO:TX:b:i:t=Solo	!	!	!	!LO:TX:a:Bi:t=Majeztoso Lente	!	!LO:TX:a:Bi:t=Maje&colon; Lente	!	!LO:TX:a:Bi:t=Majeste Lente	!	!LO:TX:a:Bi:t=Majiztozo Lente	!LO:TX:a:Bi:t=Majesto Lento	!LO:TX:a:Bi:t=Majesto Lento	!LO:TX:a:Bi:t=Majesto Lente
!LO:TX:a:Bi:t=Majesto Lento	!	!LO:DY:rj	!LO:TX:a:Bi:t=Majesto Lente	!	!LO:TX:a:Bi:t=Majesto Lente	!LO:DY:t=pi.	!LO:TX:a:Bi:t=Majesto Lente	!	!LO:TX:a:t=8	!	!LO:TX:a:t=8	!	!LO:TX:a:t=4	!	!LO:TX:a:t=8	!LO:TX:a:t=8	!LO:TX:a:t=8	!LO:TX:a:t=8
8r	.	p	8r	p	32a/LLL	p	00r	.	00r	.	00r	.	00r	.	00r	00r	00r	00r
.	.	.	.	.	32g/	.	.	.	.	.	.	.	.	.	.	.	.	.
.	.	.	.	.	32f#/	.	.	.	.	.	.	.	.	.	.	.	.	.
.	.	.	.	.	32g/JJ	.	.	.	.	.	.	.	.	.	.	.	.	.
8D\L	.	.	8f#/L	.	8a'/J	.	.	.	.	.	.	.	.	.	.	.	.	.
8D\	.	.	8f#/	.	16r	.	.	.	.	.	.	.	.	.	.	.	.	.
.	.	.	.	.	16dd\LL	.	.	.	.	.	.	.	.	.	.	.	.	.
8D\J	.	.	8f#/J	.	16ff#\	.	.	.	.	.	.	.	.	.	.	.	.	.
.	.	.	.	.	16dd\JJ	.	.	.	.	.	.	.	.	.	.	.	.	.
8r	.	.	8r	.	16dd\LL	.	.	.	.	.	.	.	.	.	.	.	.	.
.	.	.	.	.	16cc#\JJ	.	.	.	.	.	.	.	.	.	.	.	.	.
8A\L	.	.	8e/L	.	4cc#\	.	.	.	.	.	.	.	.	.	.	.	.	.
8A\	.	.	8e/	.	.	.	.	.	.	.	.	.	.	.	.	.	.	.
8A\J	.	.	8e/J	.	32ee\LLL	.	.	.	.	.	.	.	.	.	.	.	.	.
.	.	.	.	.	32dd\	.	.	.	.	.	.	.	.	.	.	.	.	.
.	.	.	.	.	32cc#\	.	.	.	.	.	.	.	.	.	.	.	.	.
.	.	.	.	.	32dd\JJJ	.	.	.	.	.	.	.	.	.	.	.	.	.
=2	=2	=2	=2	=2	=2	=2	=2	=2	=2	=2	=2	=2	=2	=2	=2	=2	=2	=2
8r	.	.	8r	.	16ee\LL	.	.	.	.	.	.	.	.	.	.	.	.	.
.	.	.	.	.	16cc#\JJ	.	.	.	.	.	.	.	.	.	.	.	.	.
8C#\L	6	.	8e/L	.	4a/	.	.	.	.	.	.	.	.	.	.	.	.	.
8C#\	.	.	8e/	.	.	.	.	.	.	.	.	.	.	.	.	.	.	.
8C#\J	5	.	8e/J	.	32a/LLL	.	.	.	.	.	.	.	.	.	.	.	.	.
.	.	.	.	.	32g/	.	.	.	.	.	.	.	.	.	.	.	.	.
.	.	.	.	.	32f#/	.	.	.	.	.	.	.	.	.	.	.	.	.
.	.	.	.	.	32g/JJJ	.	.	.	.	.	.	.	.	.	.	.	.	.
8r	.	.	8r	.	16g/LL	.	.	.	.	.	.	.	.	.	.	.	.	.
.	.	.	.	.	16f#/J	.	.	.	.	.	.	.	.	.	.	.	.	.
8D\L	.	.	8A/L	.	8f#/J	.	.	.	.	.	.	.	.	.	.	.	.	.
8D\	.	.	8A/	.	8r	.	.	.	.	.	.	.	.	.	.	.	.	.
8D\J	.	.	8A/J	.	16a\LL	.	.	.	.	.	.	.	.	.	.	.	.	.
.	.	.	.	.	16dd\JJ	.	.	.	.	.	.	.	.	.	.	.	.	.
=3	=3	=3	=3	=3	=3	=3	=3	=3	=3	=3	=3	=3	=3	=3	=3	=3	=3	=3
8r	.	.	8r	.	16dd\LL	.	.	.	.	.	.	.	.	.	.	.	.	.
.	.	.	.	.	16cc#\JJ	.	.	.	.	.	.	.	.	.	.	.	.	.
8A\L	.	.	8e/L	.	4cc#\	.	.	.	.	.	.	.	.	.	.	.	.	.
8A\	.	.	8e/	.	.	.	.	.	.	.	.	.	.	.	.	.	.	.
8A\J	.	.	8e/J	.	16dd\LL	.	.	.	.	.	.	.	.	.	.	.	.	.
.	.	.	.	.	16ee\JJ	.	.	.	.	.	.	.	.	.	.	.	.	.
8r	.	.	8r	.	(32ee\LLL	.	.	.	.	.	.	.	.	.	.	.	.	.
.	.	.	.	.	32dd\	.	.	.	.	.	.	.	.	.	.	.	.	.
.	.	.	.	.	32cc#\	.	.	.	.	.	.	.	.	.	.	.	.	.
.	.	.	.	.	32dd\JJ)	.	.	.	.	.	.	.	.	.	.	.	.	.
8F#\L	6	.	8a/L	.	8dd\J	.	.	.	.	.	.	.	.	.	.	.	.	.
!	!	!	!	!	!LO:LB:g=original	!	!	!	!	!	!	!	!	!	!	!	!	!
8F#\	.	.	8a/	.	16r	.	.	.	.	.	.	.	.	.	.	.	.	.
.	.	.	.	.	16dd\LL	.	.	.	.	.	.	.	.	.	.	.	.	.
8F#\J	.	.	8a/J	.	16dd\	.	.	.	.	.	.	.	.	.	.	.	.	.
.	.	.	.	.	16ccn\JJ	.	.	.	.	.	.	.	.	.	.	.	.	.
=4	=4	=4	=4	=4	=4	=4	=4	=4	=4	=4	=4	=4	=4	=4	=4	=4	=4	=4
!	!	!	!	!	!LO:SIC:v:s=16ccn\LL	!	!	!	!	!	!	!	!	!	!	!	!	!
8G\L	3	.	8b\L	.	16cc#\LL	.	.	.	.	.	.	.	.	.	.	.	.	.
.	.	.	.	.	16b\	.	.	.	.	.	.	.	.	.	.	.	.	.
8G\	.	.	8b\	.	16cc#X\	.	.	.	.	.	.	.	.	.	.	.	.	.
.	.	.	.	.	16dd\JJ	.	.	.	.	.	.	.	.	.	.	.	.	.
8G\	6	.	8b\	.	16ee\LL	.	.	.	.	.	.	.	.	.	.	.	.	.
.	.	.	.	.	16gg\	.	.	.	.	.	.	.	.	.	.	.	.	.
8G#X\J	5	.	8b\J	.	16b\	.	.	.	.	.	.	.	.	.	.	.	.	.
.	.	.	.	.	16ee\JJ	.	.	.	.	.	.	.	.	.	.	.	.	.
4A\	4	.	4f#/	.	4dd\	.	.	.	.	.	.	.	.	.	.	.	.	.
8AA/	3	.	8e/	.	8cc#\	.	.	.	.	.	.	.	.	.	.	.	.	.
8r	.	.	8r	.	8r	.	.	.	.	.	.	.	.	.	.	.	.	.
!LO:LB:g=original	!	!	!	!	!	!	!	!	!	!	!	!	!	!	!	!	!	!
=5	=5	=5	=5	=5	=5	=5	=5	=5	=5	=5	=5	=5	=5	=5	=5	=5	=5	=5
!LO:TX:a:t=4	!	!	!	!	!	!LO:DY:rj	!	!	!	!	!	!	!LO:TX:a:i:t=Solo	!	!	!	!	!
00r	.	.	8r	.	8r	p	00r	.	00r	.	00r	.	32a\LLL	Di-	00r	00r	00r	00r
.	.	.	.	.	.	.	.	.	.	.	.	.	32g\	.	.	.	.	.
.	.	.	.	.	.	.	.	.	.	.	.	.	32f#\	.	.	.	.	.
.	.	.	.	.	.	.	.	.	.	.	.	.	32g\JJJ	.	.	.	.	.
.	.	.	8d/L	.	8f#/L	.	.	.	.	.	.	.	8a\	-xit	.	.	.	.
.	.	.	8d/	.	8f#/	.	.	.	.	.	.	.	16r	.	.	.	.	.
.	.	.	.	.	.	.	.	.	.	.	.	.	16dd\LL	di-	.	.	.	.
.	.	.	8d/J	.	8f#/J	.	.	.	.	.	.	.	16ff#\JJ	.	.	.	.	.
.	.	.	.	.	.	.	.	.	.	.	.	.	16dd\	-xit	.	.	.	.
!	!	!	!LO:TX:t=P:problem=brak pauzy 8r	!	!	!	!	!	!	!	!	!	!	!	!	!	!	!
.	.	.	8ryy	.	8r	.	.	.	.	.	.	.	8dd\	Do-	.	.	.	.
.	.	.	8A/L	.	8e/L	.	.	.	.	.	.	.	4cc#\	-mi-	.	.	.	.
.	.	.	8A/	.	8e/	.	.	.	.	.	.	.	.	.	.	.	.	.
.	.	.	8A/J	.	8e/J	.	.	.	.	.	.	.	32ee\LLL	-nus	.	.	.	.
.	.	.	.	.	.	.	.	.	.	.	.	.	32dd\	.	.	.	.	.
.	.	.	.	.	.	.	.	.	.	.	.	.	32cc#\	.	.	.	.	.
.	.	.	.	.	.	.	.	.	.	.	.	.	32dd\JJJ	.	.	.	.	.
!	!	!	!LO:LB:g=original	!	!	!	!	!	!	!	!	!	!	!	!	!	!	!
=6	=6	=6	=6	=6	=6	=6	=6	=6	=6	=6	=6	=6	=6	=6	=6	=6	=6	=6
.	.	.	8r	.	8r	.	.	.	.	.	.	.	16ee\LL	Do-	.	.	.	.
.	.	.	.	.	.	.	.	.	.	.	.	.	16cc#\JJ	.	.	.	.	.
.	.	.	8c#/L	.	8e/L	.	.	.	.	.	.	.	4a\	.	.	.	.	.
.	.	.	8c#/	.	8e/	.	.	.	.	.	.	.	.	.	.	.	.	.
.	.	.	8c#/J	.	8e/J	.	.	.	.	.	.	.	32a\LLL	-mi-	.	.	.	.
.	.	.	.	.	.	.	.	.	.	.	.	.	32g\JJJ	.	.	.	.	.
.	.	.	.	.	.	.	.	.	.	.	.	.	32f#\LLL	-no	.	.	.	.
.	.	.	.	.	.	.	.	.	.	.	.	.	32g\JJJ	.	.	.	.	.
.	.	.	8r	.	8r	.	.	.	.	.	.	.	16g\LL	me-	.	.	.	.
.	.	.	.	.	.	.	.	.	.	.	.	.	16f#\JJ	.	.	.	.	.
.	.	.	8d/L	.	8f#/L	.	.	.	.	.	.	.	8f#\	-o	.	.	.	.
.	.	.	8d/	.	8f#/	.	.	.	.	.	.	.	8r	.	.	.	.	.
.	.	.	8d/J	.	8f#/J	.	.	.	.	.	.	.	16a\LL	se-	.	.	.	.
.	.	.	.	.	.	.	.	.	.	.	.	.	16dd\JJ	.	.	.	.	.
=7	=7	=7	=7	=7	=7	=7	=7	=7	=7	=7	=7	=7	=7	=7	=7	=7	=7	=7
.	.	.	8r	.	8r	.	.	.	.	.	.	.	16dd\LL	-de	.	.	.	.
.	.	.	.	.	.	.	.	.	.	.	.	.	16cc#\JJ	.	.	.	.	.
.	.	.	8A/L	.	8e/L	.	.	.	.	.	.	.	4cc#\	a	.	.	.	.
.	.	.	8A/	.	8e/	.	.	.	.	.	.	.	.	.	.	.	.	.
.	.	.	8A/J	.	8e/J	.	.	.	.	.	.	.	16dd\LL	.	.	.	.	.
.	.	.	.	.	.	.	.	.	.	.	.	.	16ee\JJ	.	.	.	.	.
!	!	!	!	!	!	!	!	!	!	!	!	!	!LO:LB:g=original	!	!	!	!	!
.	.	.	8r	.	8r	.	.	.	.	.	.	.	32ee\LLL	dex-	.	.	.	.
.	.	.	.	.	.	.	.	.	.	.	.	.	32dd\	.	.	.	.	.
.	.	.	.	.	.	.	.	.	.	.	.	.	32cc#\	.	.	.	.	.
.	.	.	.	.	.	.	.	.	.	.	.	.	32dd\JJJ	.	.	.	.	.
.	.	.	8d/L	.	8a/L	.	.	.	.	.	.	.	8dd\	-tris	.	.	.	.
.	.	.	8d/	.	8a/	.	.	.	.	.	.	.	16r	.	.	.	.	.
.	.	.	.	.	.	.	.	.	.	.	.	.	16ff#\LL	se-	.	.	.	.
.	.	.	8d/J	.	8a/J	.	.	.	.	.	.	.	16ee\	.	.	.	.	.
.	.	.	.	.	.	.	.	.	.	.	.	.	16dd\JJ	.	.	.	.	.
=8	=8	=8	=8	=8	=8	=8	=8	=8	=8	=8	=8	=8	=8	=8	=8	=8	=8	=8
.	.	.	8f#/L	.	8a/L	.	.	.	.	.	.	.	16cc#\LL	-de	.	.	.	.
.	.	.	.	.	.	.	.	.	.	.	.	.	16dd\JJ	.	.	.	.	.
.	.	.	8f#/	.	8a/	.	.	.	.	.	.	.	16a\LL	a	.	.	.	.
.	.	.	.	.	.	.	.	.	.	.	.	.	16ccn\JJ	.	.	.	.	.
.	.	.	8g/	.	8b/	.	.	.	.	.	.	.	16cc\LL	dex-	.	.	.	.
.	.	.	.	.	.	.	.	.	.	.	.	.	16b\JJ	.	.	.	.	.
.	.	.	8G/J	.	8b/J	.	.	.	.	.	.	.	16gg\LL	-tris	.	.	.	.
.	.	.	.	.	.	.	.	.	.	.	.	.	16ee\JJ	.	.	.	.	.
*	*	*	*tremolo	*	*	*	*	*	*	*	*	*	*	*	*	*	*	*
.	.	.	8A/L	.	8f#/L	.	.	.	.	.	.	.	(4dd\	me-	.	.	.	.
.	.	.	8A/	.	8f#/	.	.	.	.	.	.	.	.	.	.	.	.	.
.	.	.	8A/	.	8e/	.	.	.	.	.	.	.	4cc#X\)	.	.	.	.	.
.	.	.	8A/J	.	8e/J	.	.	.	.	.	.	.	.	.	.	.	.	.
*	*	*	*Xtremolo	*	*	*	*	*	*	*	*	*	*	*	*	*	*	*
!	!	!	!	!	!LO:LB:g=original	!	!	!	!	!	!	!	!	!	!	!	!	!
=9	=9	=9	=9	=9	=9	=9	=9	=9	=9	=9	=9	=9	=9	=9	=9	=9	=9	=9
*2\right	*	*	*	*	*	*	*	*	*	*	*	*	*	*	*	*	*	*
*tremolo	*	*	*	*	*	*	*	*	*	*	*	*	*	*	*	*	*	*
!LO:TX:a:t=..	!	!	!	!	!	!LO:DY:t=fo	!	!	!LO:SIC:v:l=Se-	!	!	!	!	!	!	!	!	!
8D'\L	.	.	16d/LL	f	16f#\LL	f	4D\	Se-	4A\	Di-	4f#\	Se-	4dd\	-is	8D\L	8dd\L	4d\	4f#\
.	.	.	16f#/JJ	.	16dd\	.	.	.	.	.	.	.	.	.	.	.	.	.
8D'\	.	.	16dd\LL	.	16ff#\	.	.	.	.	.	.	.	.	.	16D\L	16dd\L	.	.
.	.	.	16ff#\JJ	.	16aa\JJ	.	.	.	.	.	.	.	.	.	16D\JJ	16dd\JJ	.	.
!	!	!	!	!	!	!	!	!	!LO:SIC:v:l=-de	!	!	!	!	!	!	!	!	!
8D'\	.	.	16ff#\LL	.	16aa\LL	.	4D\	-de	4A\	-xit	4f#\	-de	8dd\	se-	8D\L	8dd\L	4d\	4f#\
.	.	.	16ee\	.	16gg\	.	.	.	.	.	.	.	.	.	.	.	.	.
8D'\J	.	.	16ee\	.	16gg\	.	.	.	.	.	.	.	8dd\	-de	8D\J	8dd\J	.	.
.	.	.	16dd\JJ	.	16ff#\JJ	.	.	.	.	.	.	.	.	.	.	.	.	.
*Xtremolo	*	*	*	*	*	*	*	*ij	*	*	*	*ij	*	*ij	*	*	*	*
!LO:TX:t=P:problem=mixed beam	!	!	!	!	!	!	!	!	!	!	!	!	!	!	!	!	!	!
8A\L	4	.	16dd\LL	.	16ff#\LL	.	8A\	Se-	8A\	[se-	8f#\	Se-	8dd\	se-	8AA/L	8a\L	8d\L	8f#\L
.	.	.	32cc#\L	.	32ee\L	.	.	.	.	.	.	.	.	.	.	.	.	.
.	.	.	32dd\JJJ	.	32ff#\JJJ	.	.	.	.	.	.	.	.	.	.	.	.	.
8AA/J	3	.	16cc#\LL	.	16ee\LL	.	8AA/	-de	8A\	-de]	8e\	-de	8cc#\	-de	8AA/J	8a\J	8A\J	8e\J
.	.	.	16cc#\JJ	.	16ee\JJ	.	.	.	.	.	.	.	.	.	.	.	.	.
!	!	!	!	!	!	!	!	!	!	!	!	!	!	!	!	!LO:TX:t=P:problem=brak pauzy 4r	!	!
4r	.	.	16cc#\LL	.	(16ee\LL	.	4r	.	4r	.	4r	.	4r	.	4r	4ryy	4r	4r
.	.	.	16dd\	.	16ff#\)	.	.	.	.	.	.	.	.	.	.	.	.	.
.	.	.	16dd\	.	(16ff#\	.	.	.	.	.	.	.	.	.	.	.	.	.
.	.	.	16ee\JJ	.	16gg\JJ)	.	.	.	.	.	.	.	.	.	.	.	.	.
=10	=10	=10	=10	=10	=10	=10	=10	=10	=10	=10	=10	=10	=10	=10	=10	=10	=10	=10
*tremolo	*	*	*	*	*	*	*	*	*	*	*	*	*	*	*	*	*	*
!	!	!	!	!	!LO:TX:t=P:problem=takt nr 10 zapisany repetycją	!	!	!	!	!	!	!	!	!	!	!	!	!
8D\L	.	.	16dd\LL	.	16f#\LLyy	.	4D\	Se-	4A\	Se-	4f#\	Se-	4dd\	se-	8D\L	8dd\L	4d\	4f#\
.	.	.	16a\	.	16dd\yy	.	.	.	.	.	.	.	.	.	.	.	.	.
8D\	.	.	16dd\	.	16ff#\yy	.	.	.	.	.	.	.	.	.	16D\L	16dd\L	.	.
.	.	.	16ff#\JJ	.	16aa\JJy	.	.	.	.	.	.	.	.	.	16D\JJ	16dd\JJ	.	.
8D\	.	.	16ff#\LL	.	16aa\LLyyy	.	4D\	-de	4A\	-de	4f#\	-de	4dd\	-de	8D\L	8dd\L	4d\	4f#\
.	.	.	16ee\	.	16gg\yy	.	.	.	.	.	.	.	.	.	.	.	.	.
8D\J	.	.	16ee\	.	16gg\yy	.	.	.	.	.	.	.	.	.	8D\J	8dd\J	.	.
.	.	.	16dd\JJ	.	16ff#\JJyy	.	.	.	.	.	.	.	.	.	.	.	.	.
*Xtremolo	*	*	*	*	*	*	*	*	*	*ij	*	*	*	*	*	*	*	*
!LO:TX:t=P:problem=mixed beam	!	!	!	!	!	!	!	!	!	!	!	!	!	!	!	!	!	!
8A\L	4	.	16dd\LL	.	16ff#\LLyy	.	8A\	Se-	8A\	Se-	8f#\	Se-	8dd\	se-	8AA/L	8a/L	8d\L	8f#\L
.	.	.	32cc#\L	.	32ee\Lyy	.	.	.	.	.	.	.	.	.	.	.	.	.
.	.	.	32dd\JJJ	.	32ff#\JJJyy	.	.	.	.	.	.	.	.	.	.	.	.	.
8AA/J	3	.	16cc#\LL	.	16ee\LLyy	.	8AA/	-de	8A\	-de	8e\	-de	8cc#\	-de	8AA/J	8a/J	8A\J	8e\J
.	.	.	16cc#\JJ	.	16ee\JJyy	.	.	.	.	.	.	.	.	.	.	.	.	.
4r	.	.	16cc#\LL	.	(y16ee\LLyy	.	4r	.	4r	.	4r	.	4r	.	4r	4r	4r	4r
.	.	.	16dd\	.	16ff#\)yy	.	.	.	.	.	.	.	.	.	.	.	.	.
.	.	.	16dd\	.	(y16ff#\yy	.	.	.	.	.	.	.	.	.	.	.	.	.
.	.	.	16ee\JJ	.	16gg\JJ)yy	.	.	.	.	.	.	.	.	.	.	.	.	.
!	!	!	!LO:LB:g=original	!	!	!	!	!	!	!	!	!	!	!	!	!	!	!
=11	=11	=11	=11	=11	=11	=11	=11	=11	=11	=11	=11	=11	=11	=11	=11	=11	=11	=11
*	*	*	*tremolo	*	*	*	*	*	*	*	*	*	*	*	*	*	*	*
8d\L	.	.	8a/L	.	16ff#\LL	.	4d\	Se-	4d\	Se-	4a\	Se-	4ff#\	se-	4D/	4dd\	4d\	4f#\
.	.	.	.	.	16aa\	.	.	.	.	.	.	.	.	.	.	.	.	.
8d\	.	.	8a/	.	16dd\	.	.	.	.	.	.	.	.	.	.	.	.	.
.	.	.	.	.	16ff#\JJ	.	.	.	.	.	.	.	.	.	.	.	.	.
8c#\	6	.	8a/	.	16ee\LL	.	8c#\	-de	8e\	-de	8a\	-de	8ee\	-de	4AA/	4a/	4A/	4e\
*	*	*	*	*	*	*	*	*Xij	*	*Xij	*	*Xij	*	*Xij	*	*	*	*
.	.	.	.	.	16aa\	.	.	.	.	.	.	.	.	.	.	.	.	.
8c#\J	.	.	8a/J	.	16cc#\	.	8c#\	ad	8e\	Ad	8a\	ad	8ee\	a	.	.	.	.
.	.	.	.	.	16ee\JJ	.	.	.	.	.	.	.	.	.	.	.	.	.
*	*	*	*Xtremolo	*	*	*	*	*	*	*	*	*	*	*	*	*	*	*
8B\L	.	.	8f#/L	.	16ee\LL	.	4B\	dex-	4f#\	dex-	4f#\	dex-	4dd\	dex-	4D/	4d/	4d\	4f#\
.	.	.	.	.	16dd\	.	.	.	.	.	.	.	.	.	.	.	.	.
8B\	.	.	8f#/	.	16b\	.	.	.	.	.	.	.	.	.	.	.	.	.
.	.	.	.	.	16dd\JJ	.	.	.	.	.	.	.	.	.	.	.	.	.
8A\	.	.	8cc#/	.	16cc#\LL	.	4A\	-tris	4e\	-tris	4a\	-tris	4cc#\	-tris	4AA/	4a/	4e\	4a\
.	.	.	.	.	16ee\	.	.	.	.	.	.	.	.	.	.	.	.	.
8A\J	.	.	8cc#/J	.	16aa\	.	.	.	.	.	.	.	.	.	.	.	.	.
.	.	.	.	.	16aa\JJ	.	.	.	.	.	.	.	.	.	.	.	.	.
=12	=12	=12	=12	=12	=12	=12	=12	=12	=12	=12	=12	=12	=12	=12	=12	=12	=12	=12
*	*	*	*2\right	*	*	*	*	*	*	*	*	*	*	*	*	*	*	*
*	*	*	*tremolo	*	*tremolo	*	*2\right	*	*	*	*	*	*2\right	*	*	*	*	*
!	!	!	!LO:TX:a:t=....	!	!LO:TX:a:t=....	!	!	!	!	!	!	!	!	!	!	!	!	!
8B\L	7_	.	8dd'\L	.	16aa'\LL	.	2B\	me-	4f#\	me-	(4a\	me-	2dd\	me-	2r	2r	4f#\	4a\
.	.	.	.	.	16aa'\	.	.	.	.	.	.	.	.	.	.	.	.	.
8B\	.	.	8dd'\	.	16aa'\	.	.	.	.	.	.	.	.	.	.	.	.	.
.	.	.	.	.	16aa'\JJ	.	.	.	.	.	.	.	.	.	.	.	.	.
8B\	6	.	8dd'\	.	16gg#X\LL	.	.	.	4e\	.	4g#X\)	.	.	.	.	.	4e\	4g#X\
.	.	.	.	.	16gg#\	.	.	.	.	.	.	.	.	.	.	.	.	.
8B\J	.	.	8dd'\J	.	16gg#\	.	.	.	.	.	.	.	.	.	.	.	.	.
.	.	.	.	.	16gg#\JJ	.	.	.	.	.	.	.	.	.	.	.	.	.
*	*	*	*Xtremolo	*	*Xtremolo	*	*	*	*	*	*	*	*	*	*	*	*	*
!	!	!	!LO:TX:t=P:problem=mixed beam	!	!	!	!	!	!	!	!	!	!	!	!	!	!	!
4A\	.	.	8cc#\L	.	8aa\L	.	4A\	-is	4e\	-is	4a\	-is	4cc#\	-is	8AA/L	8a/L	4A/	4a\
.	.	.	8e/J	.	8cc#\J	.	.	.	.	.	.	.	.	.	16AA/L	16a/L	.	.
.	.	.	.	.	.	.	.	.	.	.	.	.	.	.	16AA/JJ	16a/JJ	.	.
!	!	!	!	!	!	!	!	!	!	!	!	!	!	!	!	!LO:TX:t=P:problem=brak nuty	!	!
4r	.	.	4e/	.	4cc#\	.	4r	.	4r	.	4r	.	4r	.	4AA/	4a/yy	4r	4r
!LO:LB:g=original	!	!	!	!	!LO:LB:g=original	!	!LO:LB:g=original	!	!LO:LB:g=original	!	!LO:LB:g=original	!	!LO:LB:g=original	!	!LO:LB:g=original	!LO:LB:g=original	!	!
=13||	=13||	=13||	=13||	=13||	=13||	=13||	=13||	=13||	=13||	=13||	=13||	=13||	=13||	=13||	=13||	=13||	=13||	=13||
*M4/4	*	*	*M4/4	*	*M4/4	*	*M4/4	*	*M4/4	*	*M4/4	*	*M4/4	*	*M4/4	*M4/4	*M4/4	*M4/4
*met(c)	*	*	*met(c)	*	*met(c)	*	*met(c)	*	*met(c)	*	*met(c)	*	*met(c)	*	*met(c)	*met(c)	*met(c)	*met(c)
!	!	!	!LO:TX:t=P:problem=mixed beam	!	!	!	!	!	!	!	!	!	!	!	!	!	!	!
!LO:TX:a:Bi:t=Allo	!	!LO:DY:t=fo:rj	!LO:TX:a:Bi:t=Allo	!	!	!	!LO:TX:a:Bi:t=Allo	!	!	!	!LO:TX:a:Bi:t=Allo	!	!	!	!LO:TX:a:Bi:t=Allo	!	!LO:TX:a:Bi:t=Allo	!LO:TX:a:Bi:t=Allo
8d\L	.	f	8dd\L	.	8ff#L 8a 8d\	.	2r	.	2r	.	2r	.	2r	.	4D\	4dd\	4d\	4f#\
(32D\LL	.	.	32d/LL	.	(32d\LL	.	.	.	.	.	.	.	.	.	.	.	.	.
32E\	.	.	32e/	.	32e\	.	.	.	.	.	.	.	.	.	.	.	.	.
32F#\	.	.	32f#/	.	32f#\	.	.	.	.	.	.	.	.	.	.	.	.	.
32G\JJJ)	.	.	32g/JJJ	.	32g\JJJ)	.	.	.	.	.	.	.	.	.	.	.	.	.
8A\L	.	.	8a\L	.	8a\L	.	.	.	.	.	.	.	.	.	4r	4r	4r	4r
8G\J	4 2	.	24a\L	.	24a\L	.	.	.	.	.	.	.	.	.	.	.	.	.
.	.	.	24b\	.	24b\	.	.	.	.	.	.	.	.	.	.	.	.	.
.	.	.	24cc#\JJ	.	24cc#\JJ	.	.	.	.	.	.	.	.	.	.	.	.	.
4F#\	6	.	4dd\	.	4dd\	.	8r	.	8r	.	8r	.	8r	.	8r	8r	8r	8r
.	.	.	.	.	.	.	8D\L	Do-	4A\	Do-	(16f#\LL	Do-	16dd\LL	Do-	8D\L	8dd\L	16d\LL	16f#\LL
.	.	.	.	.	.	.	.	.	.	.	16a\	.	16ff#\	.	.	.	16f#\JJ	16a\JJ
8r	.	.	8r	.	8r	.	8A\J	.	.	.	16a\	.	16ff#\	.	8AA\	8a\	16f#\LL	16a\LL
.	.	.	.	.	.	.	.	.	.	.	16g\JJ)	.	16ee\JJ	.	.	.	16e\	16g\
!	!	!	!	!	!	!	!	!	!LO:SIC:v:l:s=-nec	!	!LO:SIC:v:l:s=-nec	!	!	!	!	!	!	!
8AA/	.	.	8cc#\	.	8ee\	.	8AA/	-nec	8A\	-ne	16f#\LL	-ne	16dd\LL	-nec	8AA\J	8a\J	16d\	16f#\
.	.	.	.	.	.	.	.	.	.	.	16e\JJ	.	16cc#\JJ	.	.	.	16A\JJ	16e\JJ
!	!	!	!	!	!	!	!	!	!	!	!	!	!	!	!	!	!LO:LB:g=original	!LO:LB:g=original
=14	=14	=14	=14	=14	=14	=14	=14	=14	=14	=14	=14	=14	=14	=14	=14	=14	=14	=14
!	!	!	!LO:TX:t=P:problem=mixed beam	!	!	!	!	!	!	!	!	!	!	!	!	!	!	!
8D\L	.	.	8dd\L	.	8ff#L 8a 8d\	.	8D\	po-	8A\	po-	8f#\	po-	8dd\	po-	4D\	4d/	4F#/	4d\
32D\LL	.	.	32d/LL	.	32d\LL	.	8D\	-nam	8A\	-nam	8f#\	-nam	8dd\	-nam	.	.	.	.
32E\	.	.	32e/	.	32e\	.	.	.	.	.	.	.	.	.	.	.	.	.
32F#\	.	.	32f#/	.	32f#\	.	.	.	.	.	.	.	.	.	.	.	.	.
32G\JJJ	.	.	32g/JJJ	.	32g\JJJ	.	.	.	.	.	.	.	.	.	.	.	.	.
8A\L	.	.	8a/L	.	8a\L	.	4r	.	4r	.	4r	.	4r	.	4r	4r	4r	4r
*	*	*	*Xtuplet	*	*Xtuplet	*	*	*	*	*	*	*	*	*	*	*	*	*
8G\J	4 2	.	24a/L	.	24a\L	.	.	.	.	.	.	.	.	.	.	.	.	.
.	.	.	24b/	.	24b\	.	.	.	.	.	.	.	.	.	.	.	.	.
.	.	.	24cc#/JJ	.	24cc#\JJ	.	.	.	.	.	.	.	.	.	.	.	.	.
4F#\	6	.	4dd\	.	4dd\	.	8r	.	8r	.	8r	.	8r	.	8r	8r	8r	8r
*	*	*	*	*	*	*	*	*ij	*	*ij	*	*ij	*	*	*	*	*	*
.	.	.	.	.	.	.	8D\L	Do-	4A\	Do-	16f#\LL	Do-	(16dd\LL	do-	8D\L	8dd\L	16d\LL	16f#\LL
.	.	.	.	.	.	.	.	.	.	.	16a\	.	16ff#\JJ	.	.	.	16f#\JJ	16a\JJ
8r	.	.	8r	.	8r	.	8A\J	.	.	.	16a\	.	16ff#\LL	.	8AA\	8a\	16f#\LL	16a\LL
.	.	.	.	.	.	.	.	.	.	.	16g\JJ	.	16ee\JJ)	.	.	.	16e\	16g\
!	!	!	!	!	!	!	!	!	!LO:SIC:v:l:s=-nec	!	!LO:SIC:v:l:s=-nec	!	!	!	!	!	!	!
8AA/	.	.	8cc#\	.	8ee\	.	8AA/	-nec	8A\	-ne	16f#\LL	-ne	16dd\LL	-nec	8AA\J	8a\J	16d\	16f#\
.	.	.	.	.	.	.	.	.	.	.	16e\JJ	.	16cc#\JJ	.	.	.	16A\JJ	16e\JJ
=15	=15	=15	=15	=15	=15	=15	=15	=15	=15	=15	=15	=15	=15	=15	=15	=15	=15	=15
!	!	!	!LO:TX:t=P:problem=mixed beam	!	!LO:TX:t=P:problem=mixed beam	!	!	!	!	!	!	!	!	!	!	!	!	!
4D\	.	.	8dd\L	.	8dd\L	.	8D\	po-	8A\	po-	8f#\	po-	8dd\	po-	4D\	4d/	4F#/	4d\
.	.	.	32d/LL	.	32f#/LL	.	8D\	-nam	8A\	-nam	8f#\	-nam	8dd\	-nam	.	.	.	.
.	.	.	32e/	.	32g/	.	.	.	.	.	.	.	.	.	.	.	.	.
.	.	.	32f#/	.	32a/	.	.	.	.	.	.	.	.	.	.	.	.	.
.	.	.	32e/JJJ	.	32g/JJJ	.	.	.	.	.	.	.	.	.	.	.	.	.
4r	.	.	8d/L	.	8f#\L	.	4r	.	4r	.	4r	.	4r	.	4r	4r	4r	4r
.	.	.	32f#/LL	.	32dd\LL	.	.	.	.	.	.	.	.	.	.	.	.	.
.	.	.	32g/	.	32ee\	.	.	.	.	.	.	.	.	.	.	.	.	.
.	.	.	32a/	.	32ff#\	.	.	.	.	.	.	.	.	.	.	.	.	.
.	.	.	32g/JJJ	.	32ee\JJJ	.	.	.	.	.	.	.	.	.	.	.	.	.
*tremolo	*	*	*	*	*	*	*	*	*	*	*	*	*	*ij	*	*	*2\right	*2\right
8D\L	.	.	8f#/L	.	16dd\LL	.	4D\	Do-	4d\	Do-	4a\	Do-	4ff#\	do-	8D\L	8d/L	2f#\	2a\
.	.	.	.	.	16a\	.	.	.	.	.	.	.	.	.	.	.	.	.
8D\	.	.	8a/	.	(16ff#\	.	.	.	.	.	.	.	.	.	16D\L	16d/L	.	.
.	.	.	.	.	16dd\JJ)	.	.	.	.	.	.	.	.	.	16D\JJ	16d/JJ	.	.
!	!	!	!	!	!	!	!	!	!LO:SIC:v:l:s=-nec	!	!LO:SIC:v:l:s=-nec	!	!	!	!	!	!	!
8D\	.	.	8a/	.	16aa\LL	.	4D\	-nec	4d\	-ne	4a\	-ne	4ff#\	-nec	8D\L	8d/L	.	.
.	.	.	.	.	16ff#\	.	.	.	.	.	.	.	.	.	.	.	.	.
8D\J	.	.	8a/J	.	16ff#\	.	.	.	.	.	.	.	.	.	8D\J	8d/J	.	.
.	.	.	.	.	16dd\JJ	.	.	.	.	.	.	.	.	.	.	.	.	.
!	!	!	!LO:LB:g=original	!	!LO:LB:g=original	!	!	!	!	!	!	!	!	!	!	!	!	!
=16	=16	=16	=16	=16	=16	=16	=16	=16	=16	=16	=16	=16	=16	=16	=16	=16	=16	=16
*	*	*	*tremolo	*	*	*	*	*	*	*	*	*	*	*	*	*	*	*
8D\L	6 4	.	8b\L	.	16b\LL	.	4D\	po-	4d\	po-	4b\	po-	4gg\	po-	8D\L	8d/L	2g\	2b\
.	.	.	.	.	16dd\	.	.	.	.	.	.	.	.	.	.	.	.	.
8D\	.	.	8b\	.	16gg\	.	.	.	.	.	.	.	.	.	16D\L	16d/L	.	.
.	.	.	.	.	16dd\JJ	.	.	.	.	.	.	.	.	.	16D\JJ	16d/JJ	.	.
8D\	.	.	8b\	.	16bb\LL	.	4D\	-nam	4d\	-nam	4b\	-nam	4gg\	-nam	8D\L	8d/L	.	.
*	*	*	*	*	*	*	*	*Xij	*	*Xij	*	*Xij	*	*Xij	*	*	*	*
.	.	.	.	.	16gg\	.	.	.	.	.	.	.	.	.	.	.	.	.
8D\J	.	.	8b\J	.	16gg\	.	.	.	.	.	.	.	.	.	8D\J	8d/J	.	.
.	.	.	.	.	16dd\JJ	.	.	.	.	.	.	.	.	.	.	.	.	.
8D\L	5 3	.	8a\L	.	16a\LL	.	4D\	i-	4d\	i-	4a\	i-	4ff#\	i-	8D\L	8d/L	2f#\	2a\
.	.	.	.	.	16dd\	.	.	.	.	.	.	.	.	.	.	.	.	.
8D\	.	.	8a\	.	16ff#\	.	.	.	.	.	.	.	.	.	16D\L	16d/L	.	.
.	.	.	.	.	16dd\JJ	.	.	.	.	.	.	.	.	.	16D\JJ	16d/JJ	.	.
8D\	.	.	8a\	.	16aa\LL	.	4D\	-ni-	4d\	-ni-	4a\	-ni-	4ff#\	-ni-	8D\L	8d/L	.	.
.	.	.	.	.	16ff#\	.	.	.	.	.	.	.	.	.	.	.	.	.
8D\J	.	.	8a\J	.	16ff#\	.	.	.	.	.	.	.	.	.	8D\J	8d/J	.	.
.	.	.	.	.	16dd\JJ	.	.	.	.	.	.	.	.	.	.	.	.	.
*	*	*	*Xtremolo	*	*	*	*	*	*	*	*	*	*	*	*	*	*	*
!	!	!	!	!	!	!	!	!	!	!	!	!	!	!	!	!LO:LB:g=original	!	!
=17	=17	=17	=17	=17	=17	=17	=17	=17	=17	=17	=17	=17	=17	=17	=17	=17	=17	=17
8A\L	.	.	8g/L	.	16dd\LL	.	4A\	-mi-	4c#\	-mi-	4.a\	-mi-	4.ee\	-mi-	8AA/L	8a/L	2e\	2g\
.	.	.	.	.	16cc#\	.	.	.	.	.	.	.	.	.	.	.	.	.
8A\	.	.	8g/J	.	16ee\	.	.	.	.	.	.	.	.	.	16AA/L	16a/L	.	.
.	.	.	.	.	16cc#\JJ	.	.	.	.	.	.	.	.	.	16AA/JJ	16a/JJ	.	.
8A\	.	.	8e/L	.	16a/LL	.	4AA/	-cos	4G/	-cos	.	.	.	.	8AA/L	8a/L	.	.
.	.	.	.	.	16g/	.	.	.	.	.	.	.	.	.	.	.	.	.
8A\J	.	.	16c#/L	.	16e/	.	.	.	.	.	8a\	-cos	8ee\	-cos	8AA/J	8a/J	.	.
.	.	.	16e/JJ	.	16g/JJ	.	.	.	.	.	.	.	.	.	.	.	.	.
*Xtremolo	*	*	*	*	*	*	*	*	*	*	*	*	*	*	*	*	*	*
8d\L	4	.	8e/L	.	8g/L	.	8D\	tu-	8G/	tu-	8a\	tu-	8ee\	tu-	8D\L	8d/L	8e\L	8g\L
8D\J	5 3	.	8d/J	.	8f#/J	.	8D\	-os	8F#/	-os	8a\	-os	8dd\	-os	8D\J	8d/J	8d\J	8f#\J
!	!	!	!LO:TUP:b:problem=klamra łukowa	!	!	!	!	!	!	!	!	!	!	!	!	!	!	!
8r	.	.	24f#/LL	.	24a\LL	.	8r	.	8r	.	8r	.	8r	.	8r	8r	8r	8r
.	.	.	24a/	.	24dd\	.	.	.	.	.	.	.	.	.	.	.	.	.
.	.	.	24dd/JJ	.	24ff#\JJ	.	.	.	.	.	.	.	.	.	.	.	.	.
*	*	*	*tuplet	*	*	*	*	*	*	*	*	*	*	*	*	*	*	*
!	!	!	!	!	!	!	!	!	!	!	!LO:SIC:v:l:s=sca-	!	!	!	!	!	!	!
8D\	.	.	24ff#\LL	.	24aa\LL	.	8D\	sca-	8d\	sca-	8a\	sa-	8ff#\	sca-	8D\	8d/	8d\	8f#\
.	.	.	24ee\	.	24gg\	.	.	.	.	.	.	.	.	.	.	.	.	.
.	.	.	24dd\JJ	.	24ff#\JJ	.	.	.	.	.	.	.	.	.	.	.	.	.
!LO:LB:g=original	!	!	!	!	!	!	!LO:LB:g=original	!	!LO:LB:g=original	!	!LO:LB:g=original	!	!LO:LB:g=original	!	!LO:LB:g=original	!	!	!
=18	=18	=18	=18	=18	=18	=18	=18	=18	=18	=18	=18	=18	=18	=18	=18	=18	=18	=18
*	*	*	*Xtuplet	*	*	*	*	*	*	*	*	*	*	*	*	*	*	*
!LO:TX:t=P:problem=mixed beam	!	!	!	!	!	!	!	!	!	!	!	!	!	!	!	!	!	!
8A\L	4	.	24dd\LL	.	24ff#\LL	.	8A\	-bel-	8d\	-bel-	8a\	-bel-	8ff#\	-bel-	8AA/L	8a/L	8d\L	8f#\L
.	.	.	24cc#\	.	24ee\	.	.	.	.	.	.	.	.	.	.	.	.	.
.	.	.	24dd\J	.	24ff#\J	.	.	.	.	.	.	.	.	.	.	.	.	.
8AA/J	3	.	8cc#\J	.	8ee\J	.	8AA/	-lum	8c#\	-lum	8a\	-lum	8ee\	-lum	8AA/J	8a/J	8A\J	8e\J
8r	.	.	24cc#\LL	.	24a\LL	.	8r	.	8r	.	8r	.	8r	.	8r	8r	8r	8r
.	.	.	24a\	.	24cc#\	.	.	.	.	.	.	.	.	.	.	.	.	.
.	.	.	24b\JJ	.	24dd\JJ	.	.	.	.	.	.	.	.	.	.	.	.	.
*	*	*	*	*	*	*	*	*ij	*	*ij	*	*ij	*	*ij	*	*	*	*
!	!	!	!	!	!	!	!	!	!	!	!LO:SIC:v:l:s=sca-	!	!	!	!	!	!	!
8c#\	6	.	24cc#\LL	.	24ee\LL	.	8c#\	sca-	8A\	sca-	8g\	sa-	8ee\	sca-	8AA/	8a/	8e\	8g\
.	.	.	24dd\	.	24ff#\	.	.	.	.	.	.	.	.	.	.	.	.	.
.	.	.	24ee\JJ	.	24gg\JJ	.	.	.	.	.	.	.	.	.	.	.	.	.
8d\L	4	.	24ee\LL	.	16gg\LL	.	8d\	-bel-	8d\	-bel-	8g\	-bel-	8ee\	-bel-	8D/L	8d/L	8e\L	8g\L
.	.	.	24dd\	.	.	.	.	.	.	.	.	.	.	.	.	.	.	.
.	.	.	.	.	16ff#\	.	.	.	.	.	.	.	.	.	.	.	.	.
.	.	.	24ee\J	.	.	.	.	.	.	.	.	.	.	.	.	.	.	.
8D\	3	.	8dd\J	.	16gg\	.	8D\	-lum	8d\	-lum	8f#\	-lum	8dd\	-lum	8D/	8d/J	8d\J	8f#\J
*	*	*	*	*	*	*	*	*Xij	*	*Xij	*	*Xij	*	*Xij	*	*	*	*
.	.	.	.	.	16ff#\JJ	.	.	.	.	.	.	.	.	.	.	.	.	.
8A\	.	.	16cc#\LL	.	(16ee\LL	.	8A\	pe-	8A\	pe-	8e\	pe-	8cc#\	pe-	8AA/	8a/L	4A/	4e\
.	.	.	16a\	.	16cc#\	.	.	.	.	.	.	.	.	.	.	.	.	.
8G\J	4 2	.	16b\	.	16dd\	.	16G\	-dum	16A\	-dum	16e\	-dum	16cc#\	-dum	8AA/J	8a/J	.	.
.	.	.	16cc#\JJ	.	16ee\JJ)	.	16G\	tu-	16A\	tu-	16e\	tu-	16cc#\	tu-	.	.	.	.
!	!	!	!	!	!LO:LB:g=original	!	!	!	!	!	!	!	!	!	!	!	!	!
=19	=19	=19	=19	=19	=19	=19	=19	=19	=19	=19	=19	=19	=19	=19	=19	=19	=19	=19
!	!	!	!LO:TX:t=P:problem=mixed beam	!	!	!	!	!	!	!	!	!	!	!	!	!	!	!
8F#\L	6	.	8dd\L	.	8ff#\	.	8F#\L	-o-	8A\	-o-	(4f#\	-o-	(4.dd\	-o-	4D/	4dd\	4.d\	4.f#\
8B\	.	.	8f#/	.	4dd\	.	8B\	.	4B\	.	.	.	.	.	.	.	.	.
8G\	5	.	8e/	.	.	.	8G\	.	.	.	4e\)	.	.	.	8r	8r	.	.
8A\J	.	.	8e/J	.	8cc#\	.	8A\J	.	8A\	.	.	.	8cc#\)	.	8AA/	8a/	8A/	8e\
8D\	.	.	8f#/	.	8dd\L	.	4D\	-rum	4A\	-rum	4f#\	-rum	4dd\	-rum	8D/	8d/	8F#/	8d\
8r	.	.	32a/LLL	.	32aa\LL	.	.	.	.	.	.	.	.	.	8r	8r	8r	8r
.	.	.	32g/	.	32gg\	.	.	.	.	.	.	.	.	.	.	.	.	.
.	.	.	32f#/	.	32ff#\	.	.	.	.	.	.	.	.	.	.	.	.	.
.	.	.	32e/JJJ	.	32ee\JJJ	.	.	.	.	.	.	.	.	.	.	.	.	.
!LO:TX:t=P:problem=mixed beam	!	!	!	!	!	!	!	!	!	!	!	!	!	!	!	!	!	!
8A\L	4	.	8d/L	.	8dd\L	.	4r	.	4r	.	4r	.	4r	.	8AA/L	8a/L	8d\L	8f#\L
8AA/J	3	.	8e/J	.	8cc#\J	.	.	.	.	.	.	.	.	.	16AA/L	16a/L	8A\J	8e\J
.	.	.	.	.	.	.	.	.	.	.	.	.	.	.	16AA/JJ	16a/JJ	.	.
!	!	!	!LO:LB:g=original	!	!	!	!	!	!	!	!	!	!	!	!	!	!	!
=20	=20	=20	=20	=20	=20	=20	=20	=20	=20	=20	=20	=20	=20	=20	=20	=20	=20	=20
!	!	!	!	!	!	!	!	!	!LO:TX:a:t=4	!	!LO:TX:a:t=4	!	!LO:TX:a:t=4	!	!	!	!	!
4D\	.	p	4f#/	.	4dd\	.	8r	.	00r	.	00r	.	00r	.	4D/	4d/	4F#/	4d\
.	.	.	.	.	.	.	8D\	vir-	.	.	.	.	.	.	.	.	.	.
8r	.	.	8r	.	8r	.	16A\LL	-gam	.	.	.	.	.	.	4r	4r	4r	4r
.	.	.	.	.	.	.	16B\JJ	.	.	.	.	.	.	.	.	.	.	.
8C#/	6 5	.	8a/	.	8ee\	.	16A\LL	vir-	.	.	.	.	.	.	.	.	.	.
.	.	.	.	.	.	.	16G\JJ	.	.	.	.	.	.	.	.	.	.	.
*	*	*	*tremolo	*	*	*	*	*	*	*	*	*	*	*	*	*	*	*
!	!	!	!LO:TX:b:t=....	!	!	!	!	!	!	!	!	!	!	!	!	!	!	!
8D\L	.	.	8a'/L	.	8ff#\L	.	8F#\	-tu-	.	.	.	.	.	.	2r	2r	2r	2r
8F#\	6	.	8a'/	.	8ff#\J	.	8d\	-tis	.	.	.	.	.	.	.	.	.	.
8A\	.	.	8a'/	.	8ee\L	.	8c#\L	tu-	.	.	.	.	.	.	.	.	.	.
8G\J	4 2	.	8a'/J	.	16dd\L	.	16B\L	.	.	.	.	.	.	.	.	.	.	.
.	.	.	.	.	16ee\JJ	.	16c#\JJ	.	.	.	.	.	.	.	.	.	.	.
!	!	!	!	!	!	!	!	!	!	!	!	!	!	!	!	!LO:LB:g=original	!	!
=21	=21	=21	=21	=21	=21	=21	=21	=21	=21	=21	=21	=21	=21	=21	=21	=21	=21	=21
!	!	!	!LO:N:TREM:vis=4	!	!	!	!	!	!	!	!	!	!	!	!	!	!	!
!	!	!	!LO:TX:b:t=....	!	!	!	!	!	!	!	!	!	!	!	!LO:TX:a:t=3	!LO:TX:a:t=3	!LO:TX:a:t=3	!LO:TX:a:t=3
4F#\	6	.	8a'/L	.	8ff#\L	.	8d\	-ae	.	.	.	.	.	.	0r	0r	0r	0r
.	.	.	8a'/	.	8ff#\J	.	8A\	e-	.	.	.	.	.	.	.	.	.	.
4D\	.	.	8a'/	.	8ff#\L	.	8F#\	-mit-	.	.	.	.	.	.	.	.	.	.
.	.	.	8a'/J	.	16ee\L	.	16G\LL	-tet	.	.	.	.	.	.	.	.	.	.
.	.	.	.	.	16ff#\JJ	.	16A\JJ	.	.	.	.	.	.	.	.	.	.	.
*	*	*	*Xtremolo	*	*	*	*	*	*	*	*	*	*	*	*	*	*	*
4E\	.	.	8g/L	.	8gg\L	.	8.B\	Do-	.	.	.	.	.	.	.	.	.	.
.	.	.	8g/	.	8ee\J	.	.	.	.	.	.	.	.	.	.	.	.	.
.	.	.	.	.	.	.	16G\	-mi-	.	.	.	.	.	.	.	.	.	.
4C#/	6	.	8a/	.	8ee\L	.	8E\	-nus	.	.	.	.	.	.	.	.	.	.
.	.	.	8a/J	.	16dd\L	.	16F#\LL	ex	.	.	.	.	.	.	.	.	.	.
.	.	.	.	.	16ee\JJ	.	16G\JJ	.	.	.	.	.	.	.	.	.	.	.
!	!	!	!	!	!	!	!LO:LB:g=original	!	!	!	!	!	!	!	!	!	!	!
=22	=22	=22	=22	=22	=22	=22	=22	=22	=22	=22	=22	=22	=22	=22	=22	=22	=22	=22
*tremolo	*	*	*	*	*	*	*	*	*	*	*	*	*	*	*	*	*	*
8D\L	6 5	.	8a/L	.	16ee\LL	.	16G\LL	si-	.	.	.	.	.	.	.	.	.	.
.	.	.	.	.	16dd\J	.	16F#\JJ	.	.	.	.	.	.	.	.	.	.	.
8D\	.	.	8a/J	.	8dd\J	.	8F#\	-on	.	.	.	.	.	.	.	.	.	.
8D\	.	.	8r	.	8r	.	16d\LL	Do-	.	.	.	.	.	.	.	.	.	.
.	.	.	.	.	.	.	16c#\JJ	.	.	.	.	.	.	.	.	.	.	.
8D\J	.	.	8a/	.	8ff#\	.	16B\LL	-mi-	.	.	.	.	.	.	.	.	.	.
.	.	.	.	.	.	.	16A\JJ	.	.	.	.	.	.	.	.	.	.	.
*Xtremolo	*	*	*	*	*	*	*	*	*	*	*	*	*	*	*	*	*	*
8D\L	#4r 2	.	8b\L	.	8ee\L	.	8G#X\	-na-	.	.	.	.	.	.	.	.	.	.
8C#\J	6	.	8cc#\	.	8ee\	.	16A\	-re	.	.	.	.	.	.	.	.	.	.
.	.	.	.	.	.	.	16A\	in	.	.	.	.	.	.	.	.	.	.
8D\L	4_ 2_	.	8b\	.	8dd\	.	8.B\	me-	.	.	.	.	.	.	.	.	.	.
16E\L	.	.	8g#X\J	.	8b\J	.	.	.	.	.	.	.	.	.	.	.	.	.
16D\JJ	.	.	.	.	.	.	16B\	-di-	.	.	.	.	.	.	.	.	.	.
!LO:LB:g=original	!	!	!	!	!	!	!	!	!	!	!	!	!	!	!	!	!	!
=23	=23	=23	=23	=23	=23	=23	=23	=23	=23	=23	=23	=23	=23	=23	=23	=23	=23	=23
4C#/	6_	.	4e/	.	8cc#\L	.	8A\	-o	.	.	.	.	.	.	1r	1r	1r	1r
.	.	.	.	.	8cc#\	.	8E\	i-	.	.	.	.	.	.	.	.	.	.
8r	.	.	8r	.	8dd\	.	16E\LL	-ni-	.	.	.	.	.	.	.	.	.	.
.	.	.	.	.	.	.	16F#\JJ	.	.	.	.	.	.	.	.	.	.	.
8C#/	.	.	8a/	.	8ee\J	.	16F#\LL	-mi-	.	.	.	.	.	.	.	.	.	.
.	.	.	.	.	.	.	16Gn\JJ	.	.	.	.	.	.	.	.	.	.	.
!LO:TX:t=P:problem=mixed beam	!	!	!	!	!	!	!	!	!	!	!	!	!	!	!	!	!	!
8D\L	x	.	4f#/	.	4dd\	.	8F#\	-co-	.	.	.	.	.	.	.	.	.	.
8D\	6	.	.	.	.	.	16d\	-rum	.	.	.	.	.	.	.	.	.	.
.	.	.	.	.	.	.	16B\	tu-	.	.	.	.	.	.	.	.	.	.
8E\	4	.	4e/	.	8cc#\L	.	8A\L	-o-	.	.	.	.	.	.	.	.	.	.
8EE/J	5	.	.	.	8b\J	.	8G#X\J	.	.	.	.	.	.	.	.	.	.	.
!	!	!	!	!	!LO:LB:g=original	!	!	!	!	!	!	!	!	!	!	!	!LO:LB:g=original	!LO:LB:g=original
=24	=24	=24	=24	=24	=24	=24	=24	=24	=24	=24	=24	=24	=24	=24	=24	=24	=24	=24
!LO:TX:t=P:problem=mixed beam	!	!	!	!LO:DY:rj	!	!	!	!	!	!	!	!	!	!	!	!	!	!
8AA/L	.	f	16a\LL	f	(32cc#\LLL	f	8A\	-rum	8r	.	8r	.	8r	.	8AA/L	8a/L	4A/	4e\
.	.	.	.	.	32a\	.	.	.	.	.	.	.	.	.	.	.	.	.
.	.	.	32b\L	.	32b\	.	.	.	.	.	.	.	.	.	.	.	.	.
.	.	.	32cc#\	.	32cc#\	.	.	.	.	.	.	.	.	.	.	.	.	.
8A\	.	.	32dd\	.	32dd\	.	8A\	Te-	8c#\	Te-	8a\	Te-	8ee\	Te-	16AA/L	16a/L	.	.
.	.	.	32ee\	.	32ee\	.	.	.	.	.	.	.	.	.	.	.	.	.
.	.	.	32ff#\	.	32ff#\	.	.	.	.	.	.	.	.	.	16AA/JJ	16a/JJ	.	.
.	.	.	32gg#X\JJJ	.	32gg#X\JJJ)	.	.	.	.	.	.	.	.	.	.	.	.	.
8A\	.	.	16aa\LL	.	16aa\LL	.	8A\	-cum	8c#\	-cum	8a\	-cum	8ee\	-cum	8AA/L	8a/L	8A/L	8e\L
.	.	.	16ee\	.	16ee\	.	.	.	.	.	.	.	.	.	.	.	.	.
8A\J	.	.	16cc#\	.	16cc#\	.	8A\	prin-	8c#\	prin-	8a\	prin-	8ee\	prin-	8AA/J	8a/J	8A/J	8e\J
.	.	.	16ee\JJ	.	16ee\JJ	.	.	.	.	.	.	.	.	.	.	.	.	.
*tremolo	*	*	*	*	*	*	*	*	*	*	*	*	*	*	*	*	*	*
!	!	!	!	!	!LO:N:vis=8	!	!	!	!	!	!	!	!	!	!	!	!	!
8Gn\L	4 2	.	16a\LL	.	(16a\LL	.	8.Gn\	-ci-	8.c#\	-ci-	8.a\	-ci-	8.ee\	-ci-	8AA/L	8a/L	4A/	4e\
.	.	.	32b\L	.	32b\L	.	.	.	.	.	.	.	.	.	.	.	.	.
.	.	.	32cc#\	.	32cc#\	.	.	.	.	.	.	.	.	.	.	.	.	.
8G\	.	.	32dd\	.	32dd\	.	.	.	.	.	.	.	.	.	16AA/L	16a/L	.	.
.	.	.	32ee\	.	32ee\	.	.	.	.	.	.	.	.	.	.	.	.	.
.	.	.	32ff#\	.	32ff#\	.	16G\	-pi-	16c#\	-pi-	16a\	-pi-	16ee\	-pi-	16AA/JJ	16a/JJ	.	.
.	.	.	32gg#X\JJJ	.	32gg#X\JJJ)	.	.	.	.	.	.	.	.	.	.	.	.	.
8G\	.	.	16aa\LL	.	16aa\LL	.	8G\	-um	8c#\	-um	8a\	-um	8ee\	-um	8AA/L	8a/L	8A/L	8e\L
.	.	.	16ee\	.	16ee\	.	.	.	.	.	.	.	.	.	.	.	.	.
8G\J	.	.	16cc#\	.	16cc#\	.	8G\	in	8c#\	in	8a\	in	8ee\	in	8AA/J	8a/J	8A/J	8e\J
.	.	.	16ee\JJ	.	16ee\JJ	.	.	.	.	.	.	.	.	.	.	.	.	.
!	!	!	!LO:LB:g=original	!	!	!	!LO:LB:g=original	!	!LO:LB:g=original	!	!	!	!	!	!	!	!	!
=25	=25	=25	=25	=25	=25	=25	=25	=25	=25	=25	=25	=25	=25	=25	=25	=25	=25	=25
!	!	!	!LO:N:vis=16	!	!	!	!	!	!	!	!	!	!	!	!	!	!	!
8F#\L	.	.	8dd\L	.	8dd\L	.	4F#\	di-	4d\	di-	4a\	di-	4dd\	di-	8D/L	8dd\L	4d\	4f#\
8F#\	.	.	32dd\LL	.	32dd\LL	.	.	.	.	.	.	.	.	.	16D/L	16dd\L	.	.
.	.	.	32ee\	.	32ee\	.	.	.	.	.	.	.	.	.	.	.	.	.
.	.	.	32ff#\	.	32ff#\	.	.	.	.	.	.	.	.	.	16D/JJ	16dd\JJ	.	.
.	.	.	32gg\JJJ	.	32gg\JJJ	.	.	.	.	.	.	.	.	.	.	.	.	.
8F#\	.	.	16aa\LL	.	16aa\LL	.	8F#\	-e	8d\	-e	8a\	-e	8dd\	-e	8D/L	8dd\L	8d\L	8f#\L
.	.	.	16ff#\	.	16ff#\	.	.	.	.	.	.	.	.	.	.	.	.	.
8F#\J	.	.	16ee\	.	16ee\	.	8F#\	vir-	8d\	vir-	8a\	vir-	8dd\	vir-	8D/J	8dd\J	8d\J	8f#\J
.	.	.	16dd\JJ	.	16dd\JJ	.	.	.	.	.	.	.	.	.	.	.	.	.
*Xtremolo	*	*	*	*	*	*	*	*	*	*	*	*	*	*	*	*	*	*
8E\L	6	.	8cc#\L	.	16dd\LL	.	8E\L	-tu-	4c#\	-tu-	4a\	-tu-	4ee\	-tu-	8AA/L	8a/L	4e\	4g\
.	.	.	.	.	16cc#\	.	.	.	.	.	.	.	.	.	.	.	.	.
8C#\	6	.	8a\	.	16dd\	.	8C#\J	.	.	.	.	.	.	.	8AA/	8a/J	.	.
.	.	.	.	.	16gg\JJ	.	.	.	.	.	.	.	.	.	.	.	.	.
!	!	!	!	!	!	!	!	!	!	!	!	!	!	!	!	!LO:TX:t=P:problem=mixed beam	!	!
8D\	.	.	8a\	.	16gg\LL	.	8D\L	-tis	4d\	-tis	4a\	-tis	4ff#\	-tis	8D/	8dd\L	4d\	4f#\
.	.	.	.	.	16ff#\	.	.	.	.	.	.	.	.	.	.	.	.	.
8F#\J	6	.	8a\J	.	16ee\	.	8F#\J	.	.	.	.	.	.	.	8D/J	8d/J	.	.
.	.	.	.	.	16dd\JJ	.	.	.	.	.	.	.	.	.	.	.	.	.
!	!	!	!	!	!	!	!	!	!	!	!LO:LB:g=original	!	!	!	!LO:LB:g=original	!	!	!
=26	=26	=26	=26	=26	=26	=26	=26	=26	=26	=26	=26	=26	=26	=26	=26	=26	=26	=26
!LO:TX:t=P:problem=mixed beam	!	!	!	!	!	!	!	!	!	!	!	!	!	!	!	!	!	!
8A\L	4	.	8f#/L	.	8dd\L	.	8A\	tu-	8d\	tu-	8a\	tu-	8ff#\	tu-	8AA/L	8a/L	8d\L	8f#\L
8AA/J	3	.	8e/	.	8cc#\J	.	8AA/	-ae	8c#\	-ae	8a\	-e	8ee\	-e	16AA/L	16a/L	8A\J	8e\J
.	.	.	.	.	.	.	.	.	.	.	.	.	.	.	16AA/JJ	16a/JJ	.	.
8A\L	.	.	8cc#/	.	16a\LL	.	8A\	in	8c#\	in	8a\	in	8ee\	in	8AA/L	8a/L	4A/	4e\
.	.	.	.	.	16cc#\	.	.	.	.	.	.	.	.	.	.	.	.	.
8A\J	.	.	8cc#/J	.	16ee\	.	8A\	Splen-	8c#\	splen-	8a\	splen-	8ee\	splen-	8AA/J	8a/J	.	.
.	.	.	.	.	16aa\JJ	.	.	.	.	.	.	.	.	.	.	.	.	.
*tremolo	*	*	*tremolo	*	*	*	*	*	*	*	*	*	*	*	*	*	*	*
!	!	!	!	!	!	!	!	!	!	!	!	!	!LO:LB:g=original	!	!	!	!	!
8A\L	6_ 4_	.	8dd\L	.	16ggn\LL	.	8.A\	-do-	8.d\	-do-	8.a\	-do-	8.ff#\	-do-	8AA/L	8a/L	2d\	2f#\
.	.	.	.	.	16ff#\J	.	.	.	.	.	.	.	.	.	.	.	.	.
8A\	.	.	8dd\	.	8ff#\J	.	.	.	.	.	.	.	.	.	16AA/L	16a/L	.	.
.	.	.	.	.	.	.	16A\	-ri-	16d\	-ri-	16a\	-ri-	16ff#\	-ri-	16AA/JJ	16a/JJ	.	.
!	!	!	!	!	!LO:LB:g=original	!	!	!	!	!	!	!	!	!	!	!	!	!
8A\	.	.	8dd\	.	16bb\LL	.	8A\	-bus	8d\	-bus	8a\	-bus	8ff#\	-bus	8AA/L	8a/L	.	.
.	.	.	.	.	16aa\	.	.	.	.	.	.	.	.	.	.	.	.	.
8A\J	.	.	8dd\J	.	16gg\	.	8A\	san-	8d\	san-	8a\	san-	8ff#\	san-	8AA/J	8a/J	.	.
.	.	.	.	.	16ff#\JJ	.	.	.	.	.	.	.	.	.	.	.	.	.
!	!	!	!	!	!	!	!	!	!	!	!	!	!	!	!	!LO:LB:g=original	!	!
=27	=27	=27	=27	=27	=27	=27	=27	=27	=27	=27	=27	=27	=27	=27	=27	=27	=27	=27
8A\L	x	.	8cc#\L	.	16ff#\LL	.	8A\	-cto-	8c#\	-cto-	4g\	-cto-	4ee\	-cto-	8AA/L	8a/L	2A/	2e\
.	.	.	.	.	16ee\J	.	.	.	.	.	.	.	.	.	.	.	.	.
8A\	.	.	8cc#\	.	8ee\J	.	8AA/	-rum	8c#\	-rum	.	.	.	.	16AA/L	16a/L	.	.
.	.	.	.	.	.	.	.	.	.	.	.	.	.	.	16AA/JJ	16a/JJ	.	.
8A\	.	.	8cc#\	.	16aa\LL	.	4A\	ex	4c#\	ex	8a\	-rum	8ee\	-rum	8AA/L	8a/L	.	.
.	.	.	.	.	16gg\	.	.	.	.	.	.	.	.	.	.	.	.	.
8A\J	.	.	8cc#\J	.	16ff#\	.	.	.	.	.	8a\	ex	8ee\	ex	8AA/J	8a/J	.	.
.	.	.	.	.	16ee\JJ	.	.	.	.	.	.	.	.	.	.	.	.	.
*	*	*	*Xtremolo	*	*	*	*	*	*	*	*	*	*	*	*	*	*	*
8D/L	.	.	16dd\LL	.	16dd\LL	.	8.d\	u-	4d\	u-	4a\	u-	4ff#\	u-	4D/	4dd\	2d\	2f#\
.	.	.	16ff#\	.	16ff#\	.	.	.	.	.	.	.	.	.	.	.	.	.
8D/	.	.	16aa\	.	16aa\	.	.	.	.	.	.	.	.	.	.	.	.	.
.	.	.	16ff#\JJ	.	16ff#\JJ	.	16D\	-te-	.	.	.	.	.	.	.	.	.	.
8D/	.	.	16aa\LL	.	16aa\LL	.	4D\	-ro	8d\	-te-	8a\	-te-	8ff#\	-te-	4D/	4d/	.	.
.	.	.	16ff#\	.	16ff#\	.	.	.	.	.	.	.	.	.	.	.	.	.
8D/J	.	.	16ee\	.	16ee\	.	.	.	8d\	-ro	8a\	-ro	8ff#\	-ro	.	.	.	.
.	.	.	16dd\JJ	.	16dd\JJ	.	.	.	.	.	.	.	.	.	.	.	.	.
*Xtremolo	*	*	*	*	*	*	*	*	*	*	*	*	*	*	*	*	*	*
=28	=28	=28	=28	=28	=28	=28	=28	=28	=28	=28	=28	=28	=28	=28	=28	=28	=28	=28
8A\L	.	.	8.cc#\L	.	8.cc#\L	.	8A\L	an-	4c#\	an-	4a\	an-	4ee\	an-	4AA/	4a/	4A/	4e\
8G\	4 2	.	.	.	.	.	8G\J	.	.	.	.	.	.	.	.	.	.	.
.	.	.	32b\LL	.	32b\LL	.	.	.	.	.	.	.	.	.	.	.	.	.
.	.	.	32cc#\JJJ	.	32cc#\JJJ	.	.	.	.	.	.	.	.	.	.	.	.	.
8F#\	6	.	16dd\LL	.	16dd\LL	.	8F#\	-te	8d\	-te	8a\	-te	8ff#\	-te	8D/L	8dd\L	8d\L	8f#\L
.	.	.	16ff#\	.	16ff#\	.	.	.	.	.	.	.	.	.	.	.	.	.
8C#\J	6	.	16ee\	.	16ee\	.	8C#\	lu-	8c#\	lu-	8a\	lu-	8ff#\	lu-	8AA/J	8a\J	8e\J	8g\J
.	.	.	16gg\JJ	.	16gg\JJ	.	.	.	.	.	.	.	.	.	.	.	.	.
!	!	!	!	!	!	!	!	!	!LO:LB:g=original	!	!	!	!	!	!	!	!	!
8D\L	.	.	16ff#\LL	.	16ff#\LL	.	8D\	-ci-	8A\	-ci-	8f#\	-ci-	8dd\	-ci-	8D/L	8d/L	8f#\L	8a\L
.	.	.	16dd\	.	16dd\	.	.	.	.	.	.	.	.	.	.	.	.	.
8A\	.	.	16gg\	.	16gg\	.	8A\	-fe-	8A\	-fe-	8e\	-fe-	8dd\	-fe-	8AA/J	8a/J	8e\	8g\
.	.	.	16ee\JJ	.	16ee\JJ	.	.	.	.	.	.	.	.	.	.	.	.	.
8B\	.	.	16ee\LL	.	16ee\LL	.	8B\	-rum	8F#/	-rum	8f#\	-rum	8dd\	-rum	4D/	4dd\	8d\	8f#\
.	.	.	16dd\	.	16dd\	.	.	.	.	.	.	.	.	.	.	.	.	.
8F#\J	6	.	16cc#\	.	16cc#\	.	8F#\	ge-	8A/	ge-	8a\	ge-	8dd\	ge-	.	.	8f#\J	8a\J
.	.	.	16dd\JJ	.	16dd\JJ	.	.	.	.	.	.	.	.	.	.	.	.	.
!LO:LB:g=original	!	!	!	!	!	!	!LO:LB:g=original	!	!	!	!	!	!	!	!	!	!	!
=29	=29	=29	=29	=29	=29	=29	=29	=29	=29	=29	=29	=29	=29	=29	=29	=29	=29	=29
!LO:TX:t=P:problem=mixed beam	!	!	!	!	!	!	!	!	!	!	!	!	!	!	!	!	!	!
8G\L	.	.	8b/L	.	16b\LL	.	4G\	.	4B\	-nu-	4g\	-nu-	4ee\	-nu-	4r	4r	4e\	4g\
.	.	.	.	.	16gg\	.	.	.	.	.	.	.	.	.	.	.	.	.
8G\	6	.	24b/L	.	16ff#\	.	.	.	.	.	.	.	.	.	.	.	.	.
.	.	.	24a/	.	.	.	.	.	.	.	.	.	.	.	.	.	.	.
.	.	.	.	.	16ee\JJ	.	.	.	.	.	.	.	.	.	.	.	.	.
.	.	.	24g/JJ	.	.	.	.	.	.	.	.	.	.	.	.	.	.	.
8A\	4	.	8f#/L	.	8dd\L	.	8A\	-nu-	4A\	-i-	8f#\L	-i-	(8dd\L	-i-	8AA/L	8a/L	8d\L	8f#\L
8AA/J	3	.	8e/J	.	8cc#\J	.	8AA/	-i-	.	.	8e\J	.	8cc#\J)	.	8AA/J	8a/J	8A\J	8e\J
!	!	!	!LO:LB:g=original	!	!	!	!	!	!	!	!LO:TX:a:i:t=So	!	!	!	!	!	!	!
4D\	.	.	4f#/	.	4dd\	.	4D/	-te	4A\	-te	8f#\	-te	8dd\	-te	4D/	4d/	4F#/	4d\
.	.	.	.	.	.	.	.	.	.	.	8f#\	Ju-	8dd\	ju-	.	.	.	.
!	!	!	!	!	!	!	!	!	!	!	!LO:LB:g=original	!	!	!	!	!	!	!
8r	.	.	8r	.	8r	.	4r	.	4r	.	8f#\	-ra-	8dd\	-ra-	4r	4r	4r	4r
!LO:TX:a:i:t=Solo	!	!	!	!	!	!	!	!	!	!	!	!	!	!	!	!	!	!
8D\	.	.	8f#/	p	8dd\	p	.	.	.	.	8f#\	-vit	8dd\	-vit	.	.	.	.
=30	=30	=30	=30	=30	=30	=30	=30	=30	=30	=30	=30	=30	=30	=30	=30	=30	=30	=30
!	!	!	!	!	!	!	!LO:TX:a:t=4	!	!LO:TX:a:t=4	!	!	!	!	!	!LO:TX:a:t=4	!LO:TX:a:t=4	!LO:TX:a:t=4	!LO:TX:a:t=4
4A\	4	.	4f#/	.	4dd\	.	00r	.	00r	.	8.f#\	Do-	8.dd\	Do-	00r	00r	00r	00r
.	.	.	.	.	.	.	.	.	.	.	16f#\	-mi-	16dd\	-mi-	.	.	.	.
4AA/	3	.	8e/L	.	8cc#\L	.	.	.	.	.	8e\	-nus	8cc#\	-nus	.	.	.	.
.	.	.	8g/J	.	8ee\J	.	.	.	.	.	16g\	et	16ee\	et	.	.	.	.
.	.	.	.	.	.	.	.	.	.	.	16g\	non	16ee\	non	.	.	.	.
!	!	!	!LO:LB:g=original	!	!	!	!	!	!	!	!	!	!LO:LB:g=original	!	!	!	!	!
4D\	.	.	8.f#/L	.	8.dd\L	.	.	.	.	.	8.f#\	pe-	8dd\	pe-	.	.	.	.
.	.	.	.	.	.	.	.	.	.	.	.	.	16dd\LL	-ni-	.	.	.	.
.	.	.	16a/Jk	.	16ff#\Jk	.	.	.	.	.	16a\	-ni-	16ff#\JJ	.	.	.	.	.
!LO:TX:t=P:problem=mixed beam	!	!	!	!	!	!	!	!	!	!	!	!	!	!	!	!	!	!
8A\L	4	.	16a/LL	.	16ff#\LL	.	.	.	.	.	16a\LL	-te-	16ff#\LL	-te-	.	.	.	.
.	.	.	16g/	.	16ee\	.	.	.	.	.	16g\JJ	.	16ee\JJ	.	.	.	.	.
8AA/J	3	.	16f#/	.	16dd\	.	.	.	.	.	16g\LL	-bit	16ee\LL	-bit	.	.	.	.
.	.	.	16e/JJ	.	16cc#\JJ	.	.	.	.	.	16f#\JJ	.	16dd\JJ	.	.	.	.	.
=31	=31	=31	=31	=31	=31	=31	=31	=31	=31	=31	=31	=31	=31	=31	=31	=31	=31	=31
4D\	.	.	8f#/L	.	4dd\	.	.	.	.	.	8f#\	e-	8dd\	e-	.	.	.	.
.	.	.	8f#/	.	.	.	.	.	.	.	8f#\	-um	8dd\	-um	.	.	.	.
4F#\	6	.	8a/	.	16dd\LL	.	.	.	.	.	8a\	tu	16dd\LL	tu	.	.	.	.
.	.	.	.	.	16ee\	.	.	.	.	.	.	.	16ee\JJ	.	.	.	.	.
.	.	.	8a/J	.	16dd\	.	.	.	.	.	16a\	es	16dd\	es	.	.	.	.
.	n5r	.	.	.	16ccn\JJ	.	.	.	.	.	16a\	sa-	16ccn\	sa-	.	.	.	.
4G\	.	.	8d/L	.	16cc\LL	.	.	.	.	.	8d\	-cer-	8cc\	-cer-	.	.	.	.
.	.	.	.	.	16b\J	.	.	.	.	.	.	.	.	.	.	.	.	.
.	.	.	8d/	.	8b\J	.	.	.	.	.	8d\	-dos	8b\	-dos	.	.	.	.
4G#X\	6	.	8b/	.	16ee\LL	.	.	.	.	.	8b\	in	16ee\LL	in	.	.	.	.
.	.	.	.	.	16ff#\	.	.	.	.	.	.	.	16ff#\JJ	.	.	.	.	.
.	.	.	8b/J	.	16ee\	.	.	.	.	.	8b\	e-	16ee\LL	e-	.	.	.	.
.	5	.	.	.	16dd\JJ	.	.	.	.	.	.	.	16dd\JJ	.	.	.	.	.
=32	=32	=32	=32	=32	=32	=32	=32	=32	=32	=32	=32	=32	=32	=32	=32	=32	=32	=32
4A\	#	.	8e/L	.	16dd\LL	.	.	.	.	.	8e\	-ter-	16dd\LL	-ter-	.	.	.	.
.	.	.	.	.	16cc#X\J	.	.	.	.	.	.	.	16cc#X\JJ	.	.	.	.	.
.	.	.	8e/J	.	8cc#\J	.	.	.	.	.	8e\	-num	8cc#\	-num	.	.	.	.
4C#/	6	.	4g/	.	4ee\	.	.	.	.	.	4g\	se-	4ee\	se-	.	.	.	.
!	!	!	!	!	!	!	!	!	!	!	!LO:LB:g=original	!	!	!	!	!	!	!
4D/	.	.	16g/LL	.	16ee\LL	.	.	.	.	.	16g\LL	-cun-	16ee\LL	-cun-	.	.	.	.
.	.	.	16f#/	.	16dd\	.	.	.	.	.	16f#\	.	16dd\	.	.	.	.	.
.	.	.	16g/	.	16ee\	.	.	.	.	.	16g\	.	16ee\	.	.	.	.	.
.	.	.	16a/JJ	.	16ff#\JJ	.	.	.	.	.	16a\JJ	.	16ff#\JJ	.	.	.	.	.
8G\L	6	.	16b/LL	.	16gg\LL	.	.	.	.	.	16b\LL	.	16gg\LL	.	.	.	.	.
.	.	.	16a/	.	16ff#\	.	.	.	.	.	16a\JJ	.	16ff#\	.	.	.	.	.
8G#X\J	5	.	16g/	.	16ee\	.	.	.	.	.	16g\LL	-dum	16ee\	-dum	.	.	.	.
.	.	.	16f#/JJ	.	16dd\JJ	.	.	.	.	.	16f#\JJ	.	16dd\JJ	.	.	.	.	.
=33	=33	=33	=33	=33	=33	=33	=33	=33	=33	=33	=33	=33	=33	=33	=33	=33	=33	=33
8A\L	.	.	8e/L	.	8.cc#\L	.	.	.	.	.	8e\	or-	8cc#\	or-	.	.	.	.
8Gn\	4 2	.	16d/L	.	.	.	.	.	.	.	16d\LL	-di-	16b\LL	-di-	.	.	.	.
.	.	.	16e/JJ	.	32b\LL	.	.	.	.	.	16e\JJ	.	16cc#\JJ	.	.	.	.	.
.	.	.	.	.	32cc#\JJJ	.	.	.	.	.	.	.	.	.	.	.	.	.
8F#\	6	.	8f#/L	.	8dd\L	.	.	.	.	.	8f#\	-nem	8dd\	-nem	.	.	.	.
8G\J	6	.	8g/J	.	8ee\J	.	.	.	.	.	8g\	mel-	8ee\	mel-	.	.	.	.
8F#\L	6	.	4f#/	.	4.dd\	.	.	.	.	.	4f#\	chi-	4.dd\	chi-	.	.	.	.
8B\	.	.	.	.	.	.	.	.	.	.	.	.	.	.	.	.	.	.
8G\	6 5	.	4e/	.	.	.	.	.	.	.	4e\	-se-	.	.	.	.	.	.
8A\J	.	.	.	.	8cc#\	f	.	.	.	.	.	.	8cc#\	-se-	.	.	.	.
!	!	!	!	!	!	!	!	!	!	!	!	!	!LO:LB:g=original	!	!	!	!	!
=34	=34	=34	=34	=34	=34	=34	=34	=34	=34	=34	=34	=34	=34	=34	=34	=34	=34	=34
4D\	.	.	8f#/L	.	8dd\L	.	2r	.	2r	.	4f#\	-dech	4dd\	-dech	4D/	4dd\	4d\	4f#\
.	.	.	32d/LL	.	32f#\LL	.	.	.	.	.	.	.	.	.	.	.	.	.
.	.	.	32e/	.	32g\	.	.	.	.	.	.	.	.	.	.	.	.	.
.	.	.	32f#/	.	32a\	.	.	.	.	.	.	.	.	.	.	.	.	.
.	.	.	32e/JJJ	.	32g\JJJ	.	.	.	.	.	.	.	.	.	.	.	.	.
*	*	*	*rep	*	*	*	*	*	*	*	*	*	*	*	*	*	*	*
4r	.	.	8f#/L	.	8f#\L	.	.	.	.	.	4r	.	4r	.	4r	4r	4r	4r
.	.	.	32d/LL	.	32dd\LL	.	.	.	.	.	.	.	.	.	.	.	.	.
.	.	.	32e/	.	32ee\	.	.	.	.	.	.	.	.	.	.	.	.	.
.	.	.	32f#/	.	32ff#\	.	.	.	.	.	.	.	.	.	.	.	.	.
.	.	.	32e/JJJ	.	32dd\JJJ	.	.	.	.	.	.	.	.	.	.	.	.	.
*	*	*	*Xrep	*	*	*	*	*	*	*	*	*	*	*	*	*	*	*
!LO:LB:g=original	!	!LO:DY:rj	!LO:LB:g=original	!	!LO:LB:g=original	!	!	!	!	!	!	!	!	!	!	!	!	!
8.D\L	.	f	4f#/	.	4dd\	.	8.D\	Do-	8.d\	Do-	8.a\	Do-	8.ff#\	Do-	8D/L	8dd\L	8.d\L	8.f#\L
.	.	.	.	.	.	.	.	.	.	.	.	.	.	.	16D/L	16dd\L	.	.
16D\K	.	.	.	.	.	.	16D\	-mi-	16d\	-mi-	16a\	-mi-	16ff#\	-mi-	16D/JJ	16dd\JJ	16d\K	16f#\Jk
8D\	.	.	4r	.	4r	.	8D\	-nus	8d\	-nus	8a\	-nus	8ff#\	-nus	8D/L	8dd\L	8d\	8f#\L
8D\J	.	.	.	.	.	.	8D\	a	8d\	a	8a\	ad	8ff#\	ad	8D/J	8dd\J	8d\J	8f#\J
!	!	!	!	!	!	!	!	!	!	!	!	!	!	!	!LO:LB:g=original	!	!	!LO:LB:g=original
=35	=35	=35	=35	=35	=35	=35	=35	=35	=35	=35	=35	=35	=35	=35	=35	=35	=35	=35
!LO:TX:t=P:problem=mixed beam	!	!	!	!	!	!	!	!	!	!	!	!	!	!	!	!	!	!
8A\L	.	.	8e/L	.	8cc#\L	.	8A\	dex-	8c#\	dex-	8a\	dex-	8ee\	dex-	8AA/L	4a/	8A/L	8e\L
8AA/J	.	.	32c#/LL	.	32e\LL	.	8AA/	-tris	8c#\	-tris	8a\	-tris	8ee\	-tris	8AA/J	.	8A/J	8e\J
.	.	.	32d/	.	32f#\	.	.	.	.	.	.	.	.	.	.	.	.	.
.	.	.	32e/	.	32g\	.	.	.	.	.	.	.	.	.	.	.	.	.
.	.	.	32d/JJJ	.	32f#\JJJ	.	.	.	.	.	.	.	.	.	.	.	.	.
4r	.	.	8c#/L	.	8e\L	.	4r	.	4r	.	4r	.	4r	.	4r	4r	4r	4r
.	.	.	32e/LL	.	32cc#\LL	.	.	.	.	.	.	.	.	.	.	.	.	.
.	.	.	32f#/	.	32dd\	.	.	.	.	.	.	.	.	.	.	.	.	.
.	.	.	32g/	.	32ee\	.	.	.	.	.	.	.	.	.	.	.	.	.
.	.	.	32f#/JJJ	.	32dd\JJJ	.	.	.	.	.	.	.	.	.	.	.	.	.
*	*	*	*	*	*	*	*	*ij	*	*ij	*	*ij	*	*ij	*	*	*	*
!	!	!	!	!	!	!	!	!	!	!	!	!	!	!	!	!	!LO:LB:g=original	!
8.A\L	.	.	4e/	.	4cc#\	.	8.A\	Do-	8.c#\	Do-	8.a\	Do-	8.ee\	Do-	8AA/L	8a/L	8.e\L	8.g\L
.	.	.	.	.	.	.	.	.	.	.	.	.	.	.	16AA/L	16a/L	.	.
16A\K	.	.	.	.	.	.	16A\	-mi-	16c#\	-mi-	16a\	-mi-	16ee\	-mi-	16AA/JJ	16a/JJ	16e\K	16g\K
8A\	.	.	4r	.	4r	.	8A\	-nus	8c#\	-nus	8a\	-nus	8ee\	-nus	8AA/L	8a/L	8e\	8g\
8A\J	.	.	.	.	.	.	8A\	a	8c#\	a	8a\	ad	8ee\	ad	8AA/J	8a/J	8e\J	8g\J
!	!	!	!	!	!	!	!	!	!	!	!	!	!	!	!	!LO:LB:g=original	!	!
=36	=36	=36	=36	=36	=36	=36	=36	=36	=36	=36	=36	=36	=36	=36	=36	=36	=36	=36
8d\L	.	.	8f#/L	.	8dd\L	.	8d\	dex-	8d\	dex-	8a\	dex-	8ff#\	dex-	8D/L	8dd\L	8d\L	8f#\L
8D\J	.	.	32d/LL	.	32f#\LL	.	8D\	-tris	8d\	-tris	8a\	-tris	8ff#\	-tris	8D/J	8dd\J	8d\J	8f#\J
.	.	.	32e/	.	32g\	.	.	.	.	.	.	.	.	.	.	.	.	.
.	.	.	32f#/	.	32a\	.	.	.	.	.	.	.	.	.	.	.	.	.
.	.	.	32e/JJJ	.	32g\JJJ	.	.	.	.	.	.	.	.	.	.	.	.	.
4r	.	.	8d/L	.	8f#\L	.	4r	.	4r	.	4r	.	4r	.	4r	4r	4r	4r
.	.	.	(32f#/LL	.	32dd\LL	.	.	.	.	.	.	.	.	.	.	.	.	.
.	.	.	32g/	.	32ee\	.	.	.	.	.	.	.	.	.	.	.	.	.
.	.	.	32a/	.	32ff#\	.	.	.	.	.	.	.	.	.	.	.	.	.
.	.	.	32g/JJJ)	.	32ee\JJJ	.	.	.	.	.	.	.	.	.	.	.	.	.
!	!	!	!	!	!	!	!	!	!LO:LB:g=original	!	!LO:LB:g=original	!	!	!	!	!	!	!
8.D\L	.	.	8f#/L	.	16dd\LL	.	8.D\	Do-	8.d\	Do-	8.a\	Do-	8.ff#\	Do-	8D/L	8dd\L	8.f#\L	8.a\L
.	.	.	.	.	16f#\	.	.	.	.	.	.	.	.	.	.	.	.	.
.	.	.	8a/	.	16a\	.	.	.	.	.	.	.	.	.	16D/L	16dd\L	.	.
16D\K	.	.	.	.	16dd\JJ	.	16D\	-mi-	16d\	-mi-	16a\	-mi-	16ff#\	-mi-	16D/JJ	16dd\JJ	16f#\K	16a\Jk
8D\	.	.	8a/	.	16ff#\LL	.	8D\	-nus	8d\	-nus	8a\	-nus	8ff#\	-nus	8D/L	8dd\L	8f#\	8a\L
.	.	.	.	.	16dd\	.	.	.	.	.	.	.	.	.	.	.	.	.
8D\J	.	.	8a/J	.	16ff#\	.	8D\	a	8d\	a	8a\	ad	8ff#\	ad	8D/J	8dd\J	8f#\J	8a\J
.	.	.	.	.	16aa\JJ	.	.	.	.	.	.	.	.	.	.	.	.	.
=37	=37	=37	=37	=37	=37	=37	=37	=37	=37	=37	=37	=37	=37	=37	=37	=37	=37	=37
8D\L	6_ 4_	.	8.b/L	.	8.gg\L	.	4D\	dex-	4d\	dex-	4b\	dex-	4gg\	dex-	8D/L	8dd\L	4g\	4b\
8D\	.	.	.	.	.	.	.	.	.	.	.	.	.	.	16D/L	16dd\L	.	.
.	.	.	(32a/LL	.	32ff#\LL	.	.	.	.	.	.	.	.	.	16D/JJ	16dd\JJ	.	.
.	.	.	32b/JJJ)	.	32gg\JJJ	.	.	.	.	.	.	.	.	.	.	.	.	.
8D\	5 3	.	8a/L	.	16ff#\LL	.	8D\	-tris	8d\	-tris	8a\	-tris	8ff#\	-tris	8D/L	8dd\L	4f#\	4a\
*	*	*	*	*	*	*	*	*Xij	*	*Xij	*	*Xij	*	*Xij	*	*	*	*
.	.	.	.	.	16aa\	.	.	.	.	.	.	.	.	.	.	.	.	.
8D\J	.	.	8a/J	.	16dd\	.	8D\	a	8d\	a	8a\	ad	8ff#\	ad	8D/J	8dd\J	.	.
.	.	.	.	.	16ff#\JJ	.	.	.	.	.	.	.	.	.	.	.	.	.
!LO:TX:t=P:problem=mixed beam	!	!	!	!	!	!	!LO:LB:g=original	!	!	!	!	!	!	!	!	!	!	!
8C#\L	6 5	.	8a\L	.	16ee\LL	.	8C#\	dex-	8e\	dex-	8a\	dex-	8ee\	dex-	8AA/L	8a\L	8e\L	8g\L
.	.	.	.	.	16gg\	.	.	.	.	.	.	.	.	.	.	.	.	.
8D\	.	.	16dd\L	.	16ff#\	.	8D\	-tris	8d\	-tris	8a\	-tris	8ff#\	-tris	8D/J	8dd\	8d\	8f#\
.	.	.	16ff#\JJ	.	16aa\JJ	.	.	.	.	.	.	.	.	.	.	.	.	.
!	!	!	!	!	!	!	!LO:TX:t=P:problem=mixed beam	!	!	!	!	!	!	!	!	!	!	!
8A\	4	.	(16ff#\LL	.	(16aa\LL	.	8A\L	tu-	8d\L	tu-	4a\	tu-	8ff#\L	tu-	8AA/L	8a\	8d\	8e\
.	.	.	16ee\	.	16gg\	.	.	.	.	.	.	.	.	.	.	.	.	.
8AA/J	3	.	16dd\	.	16ff#\	.	8AA/J	.	8c#\J	.	.	.	8ee\J	.	8AA/J	8a\J	8A\J	8d\J
.	.	.	16cc#\JJ)	.	16ee\JJ)	.	.	.	.	.	.	.	.	.	.	.	.	.
!	!	!	!	!	!LO:LB:g=original	!	!	!	!	!	!	!	!	!	!	!	!	!
=38	=38	=38	=38	=38	=38	=38	=38	=38	=38	=38	=38	=38	=38	=38	=38	=38	=38	=38
*tremolo	*	*	*	*	*	*	*	*	*	*	*	*	*	*	*	*	*	*
8D\L	.	.	8dd\L	.	16ff#\LL	.	8D\	-is	8d\	-is	8a\	-is	8ff#\	-is	4D/	4dd\	2d\	2f#\
.	.	.	.	.	16dd\	.	.	.	.	.	.	.	.	.	.	.	.	.
8D\	.	.	16cc#\L	.	16cc#\	.	8D\	con-	8d\	con-	8a\	Con-	8ff#\	con-	.	.	.	.
.	.	.	16dd\JJ	.	16dd\JJ	.	.	.	.	.	.	.	.	.	.	.	.	.
8D\	.	.	16ff#\LL	.	16ff#\LL	.	4D\	-fre-	4d\	-fre-	4a\	-fre-	4ff#\	-fre-	4D/	8d/L	.	.
.	.	.	16dd\	.	16dd\	.	.	.	.	.	.	.	.	.	.	.	.	.
8D\J	.	.	16aa\	.	16aa\	.	.	.	.	.	.	.	.	.	.	8d/J	.	.
.	.	.	16ff#\JJ	.	16ff#\JJ	.	.	.	.	.	.	.	.	.	.	.	.	.
!	!	!	!LO:LB:g=original	!	!	!	!	!	!	!	!	!	!LO:LB:g=original	!	!	!	!	!
8A\L	.	.	16gg\LL	.	16gg\LL	.	8A\	-git	8c#\	-git	8g\	-git	8ee\	-git	4AA/	4a/	2A\	2e\
.	.	.	16ee\	.	16ee\	.	.	.	.	.	.	.	.	.	.	.	.	.
8A\	.	.	16dd\	.	16dd\	.	8A\	in	8c#\	in	8a\	in	8ee\	in	.	.	.	.
.	.	.	16ee\JJ	.	16ee\JJ	.	.	.	.	.	.	.	.	.	.	.	.	.
8A\	.	.	16cc#\LL	.	16cc#\LL	.	8A\	di-	8c#\	di-	8a\	di-	8ee\	di-	4AA/	8a/L	.	.
.	.	.	16a\	.	16a\	.	.	.	.	.	.	.	.	.	.	.	.	.
8A\J	.	.	16ee\	.	16ee\	.	8A\	-e	8c#\	-e	8g\	-e	8ee\	-e	.	8a/J	.	.
.	.	.	16gg\JJ	.	16gg\JJ	.	.	.	.	.	.	.	.	.	.	.	.	.
*Xtremolo	*	*	*	*	*	*	*	*	*	*	*	*	*	*	*	*	*	*
=39	=39	=39	=39	=39	=39	=39	=39	=39	=39	=39	=39	=39	=39	=39	=39	=39	=39	=39
8B\L	.	.	16ff#\LL	.	16ff#\LL	.	4B\	i-	4d\	i-	4f#\	i-	4dd\	i-	4D/	4dd\	2d\	2f#\
.	.	.	16dd\	.	16dd\	.	.	.	.	.	.	.	.	.	.	.	.	.
8B\	.	.	16cc#\	.	16cc#\	.	.	.	.	.	.	.	.	.	.	.	.	.
.	.	.	16dd\JJ	.	16dd\JJ	.	.	.	.	.	.	.	.	.	.	.	.	.
8F#\	6	.	16cc#\LL	.	16cc#\LL	.	4F#\	-re	4A\	-re	4f#\	-re	4dd\	-re	4D/	4d/	.	.
.	.	.	16dd\	.	16dd\	.	.	.	.	.	.	.	.	.	.	.	.	.
8F#\J	.	.	16a\	.	16a\	.	.	.	.	.	.	.	.	.	.	.	.	.
.	n5r	.	16ccn\JJ	.	16ccn\JJ	.	.	.	.	.	.	.	.	.	.	.	.	.
!LO:LB:g=original	!	!	!	!	!	!	!	!	!	!	!	!	!	!	!	!	!	!
!LO:TX:t=P:problem=mixed beam	!	!	!	!	!	!	!	!	!	!	!	!	!	!	!	!	!	!
8G\L	3	.	8b\L	.	8b\L	.	8G\	su-	8B\	su-	8g\	su-	8ee\	su-	4r	4r	4e\	4g\
8G\	6	.	16b\L	.	16gg\L	.	8G\	-ae	8B\	-ae	8g\	-e	8ee\	-e	.	.	.	.
.	.	.	16g\JJ	.	16ee\JJ	.	.	.	.	.	.	.	.	.	.	.	.	.
!	!	!	!	!	!	!	!LO:TX:t=P:problem=mixed beam	!	!	!	!	!	!	!	!	!	!	!
8A\	4	.	(16g/LL	.	16ee\LL	.	8A\L	re-	4A\	re-	8f#\L	re-	8dd\L	re-	8AA/L	8a/L	8d\L	8f#\L
.	.	.	16f#/)	.	16dd\	.	.	.	.	.	.	.	.	.	.	.	.	.
8AA/J	#	.	(16f#/	.	16dd\	.	8AA/J	.	.	.	8e\J	.	8cc#\J	.	8AA/J	8a/J	8A\J	8e\J
.	.	.	16e/JJ)	.	16cc#X\JJ	.	.	.	.	.	.	.	.	.	.	.	.	.
!	!	!	!	!	!	!	!	!	!LO:LB:g=original	!	!	!	!	!	!	!	!	!
=40	=40	=40	=40	=40	=40	=40	=40	=40	=40	=40	=40	=40	=40	=40	=40	=40	=40	=40
8D/L	.	.	8f#/L	.	8dd\L	.	4D/	-ges	4A\	-ges	4f#\	-ges	4dd\	-ges	4D/	4d/	4F#/	4d\
8DD/	.	.	8f#/J	.	16ff#\L	.	.	.	.	.	.	.	.	.	.	.	.	.
.	.	.	.	.	16dd\JJ	.	.	.	.	.	.	.	.	.	.	.	.	.
!	!	!	!	!	!	!	!	!	!	!	!LO:LB:g=original	!	!	!	!	!	!	!
8BB/	.	.	16b\LL	.	16b\LL	.	8BB/	Ju-	8B\	iu-	8f#\	Ju-	8dd\	ju-	4r	4r	8F#/L	8f#\L
.	.	.	16dd\	.	16dd\	.	.	.	.	.	.	.	.	.	.	.	.	.
8BB/J	.	.	16ff#\	.	16ff#\	.	8BB/	-di-	8B\	-di-	8f#\	-di-	8dd\	-di-	.	.	8F#/J	8f#\J
.	.	.	16bb\JJ	.	16bb\JJ	.	.	.	.	.	.	.	.	.	.	.	.	.
*tremolo	*	*	*	*	*	*	*	*	*	*	*	*	*	*	*	*	*	*
8BB/L	6 4	.	16aa\LL	.	16aa\LL	.	4BB/	-ca-	4B\	-ca-	4g\	-ca-	4ee\	-ca-	2r	2r	2F#/	2f#\
.	.	.	16gg\	.	16gg\	.	.	.	.	.	.	.	.	.	.	.	.	.
8BB/	.	.	16ff#\	.	16ff#\	.	.	.	.	.	.	.	.	.	.	.	.	.
.	.	.	16gg\JJ	.	16gg\JJ	.	.	.	.	.	.	.	.	.	.	.	.	.
8BB/	5 3	.	16ff#\LL	.	16ff#\LL	.	8BB/	-bit	8B\	-bit	8f#\	-bit	8dd\	-bit	.	.	.	.
.	.	.	16bb\	.	16bb\	.	.	.	.	.	.	.	.	.	.	.	.	.
8BB/J	.	.	16dd\	.	16dd\	.	8BB/	in	8B\	in	8f#\	in	8dd\	in	.	.	.	.
.	.	.	16ff#\JJ	.	16ff#\JJ	.	.	.	.	.	.	.	.	.	.	.	.	.
!	!	!	!	!	!LO:LB:g=original	!	!	!	!	!	!	!	!	!	!	!LO:LB:g=original	!	!
=41	=41	=41	=41	=41	=41	=41	=41	=41	=41	=41	=41	=41	=41	=41	=41	=41	=41	=41
!	!	!	!	!	!	!	!	!	!	!	!	!	!	!	!LO:TX:a:t=7	!LO:TX:a:t=7	!	!
8AA#X/L	6 5	.	16ff#\LL	.	16ff#\LL	.	4.AA#X/	na-	4e\	na-	4f#\	na-	4cc#\	na-	00r	00r	1F#	1f#
.	.	.	16ee\	.	16ee\	.	.	.	.	.	.	.	.	.	.	.	.	.
8AA#/	.	.	16cc#\	.	16dd\	.	.	.	.	.	.	.	.	.	.	.	.	.
.	.	.	16ee\JJ	.	16ee\JJ	.	.	.	.	.	.	.	.	.	.	.	.	.
8AA#/	.	.	16f#\LL	.	16f#/LL	.	.	.	4e\	-ti-	4f#\	-ti-	4cc#\	-ti-	.	.	.	.
.	.	.	16a#X\	.	16a#X/	.	.	.	.	.	.	.	.	.	.	.	.	.
8AA#/J	.	.	16cc#\	.	16cc#/	.	8AA#/	-ti-	.	.	.	.	.	.	.	.	.	.
.	.	.	16ee\JJ	.	16ee/JJ	.	.	.	.	.	.	.	.	.	.	.	.	.
8BB/L	.	.	16ee\LL	.	16ee\LL	.	8.BB/	-o-	8.d\	-o-	8.f#\	-o-	8.dd\	-o-	.	.	.	.
.	.	.	16dd\J	.	16dd\J	.	.	.	.	.	.	.	.	.	.	.	.	.
8BB/	.	.	8dd\J	.	8dd\J	.	.	.	.	.	.	.	.	.	.	.	.	.
.	.	.	.	.	.	.	16BB/	-ni-	16d\	-ni-	16f#\	-ni-	16dd\	-ni-	.	.	.	.
8BB/	.	.	16ff#\LL	.	16ff#\LL	.	8B\	-bus	8d\	-bus	8f#\	-bus	8dd\	-bus	.	.	.	.
.	.	.	16dd\	.	16dd\	.	.	.	.	.	.	.	.	.	.	.	.	.
!	!	!	!	!	!	!	!LO:N:vis=4	!	!	!	!	!	!	!	!	!	!	!
8BB/J	.	.	16bb\	.	16bb\	.	8B\	im-	8d\	im-	8f#\	im-	8dd\	im-	.	.	.	.
.	.	.	16ff#\JJ	.	16ff#\JJ	.	.	.	.	.	.	.	.	.	.	.	.	.
!	!	!	!LO:LB:g=original	!	!	!	!LO:LB:g=original	!	!	!	!	!	!	!	!	!	!	!
=42	=42	=42	=42	=42	=42	=42	=42	=42	=42	=42	=42	=42	=42	=42	=42	=42	=42	=42
!LO:SIC:v:s=8AA#/L	!	!	!	!	!	!	!	!	!	!	!	!	!	!	!	!	!	!
8AA/L	6 5	.	16ff#\LL	.	16ff#\LL	.	4A#\	-ple-	4e\	-ple-	4f#\	-ple-	4cc#\	-ple-	.	.	2F#/	2f#\
.	.	.	16ee\	.	16ee\	.	.	.	.	.	.	.	.	.	.	.	.	.
!LO:SIC:v:s=8AA#/	!	!	!	!	!	!	!	!	!	!	!	!	!	!	!	!	!	!
8AA/	.	.	16cc#\	.	16cc#\	.	.	.	.	.	.	.	.	.	.	.	.	.
.	.	.	16ee\JJ	.	16ee\JJ	.	.	.	.	.	.	.	.	.	.	.	.	.
!LO:SIC:v:s=8AA#/	!	!	!	!	!	!	!	!	!	!	!	!	!	!	!	!	!	!
8AA/	.	.	16f#\LL	.	16f#/LL	.	8A#\	-bit	8e\	-bit	8f#\	-bit	8cc#\	-bit	.	.	.	.
.	.	.	16a#X\	.	16a#X/	.	.	.	.	.	.	.	.	.	.	.	.	.
!LO:SIC:v:s=8AA#/J	!	!	!	!	!	!	!	!	!	!	!	!	!	!	!	!	!	!
8AA/J	.	.	16cc#\	.	16cc#/	.	8A#\	ru-	8e\	ru-	8f#\	ru-	8cc#\	ru-	.	.	.	.
.	.	.	16ee\JJ	.	16ee/JJ	.	.	.	.	.	.	.	.	.	.	.	.	.
*Xtremolo	*	*	*	*	*	*	*	*	*	*	*	*	*	*	*	*	*	*
8BB/L	3 8	.	16ee\LL	.	16ee\LL	.	8B\	-i-	8d\	-i-	8f#\	-i-	8dd\	-i-	.	.	8F#/L	8f#\L
.	.	.	16dd\J	.	16dd\J	.	.	.	.	.	.	.	.	.	.	.	.	.
8BB/J	3 8	.	8dd\J	.	8dd\J	.	8B\	-na	8d\	-nas	8f#\	-nas	8dd\	-nas	.	.	8F#/J	8f#\J
!	!	!	!	!	!	!	!	!	!LO:TX:a:i:t=Solo	!	!LO:TX:a:i:t=Sol	!	!LO:TX:a:i:t=Solo	!	!	!	!	!
4r	.	.	4r	.	4r	.	8B\	Con-	8B\	con-	8b\	con-	8b\	con-	.	.	4r	4r
.	.	.	.	.	.	.	8B\	-qua-	8B\	-qua-	8b\	-qua-	8b\	-qua-	.	.	.	.
!	!	!	!	!	!	!	!	!	!	!	!	!	!LO:LB:g=original	!	!	!	!	!LO:LB:g=original
=43	=43	=43	=43	=43	=43	=43	=43	=43	=43	=43	=43	=43	=43	=43	=43	=43	=43	=43
!LO:TX:a:t=1	!	!	!LO:TX:a:t=1	!	!LO:TX:a:t=1	!	!	!	!	!	!	!	!	!	!	!	!	!LO:TX:a:t=1
1r	.	.	1r	.	1r	.	8B\	-ſa-	8B\	-sa-	8b\	-sa-	8b\	-sa-	.	.	1r	1r
.	.	.	.	.	.	.	16d\LL	-bit	16d\LL	-bit	16dd\LL	-bit	16dd\LL	-bit	.	.	.	.
.	.	.	.	.	.	.	16c#\JJ	.	16c#\JJ	.	16cc#\JJ	.	16cc#\JJ	.	.	.	.	.
.	.	.	.	.	.	.	8B\	ca-	8B\	ca-	8b\	ca-	8b\	ca-	.	.	.	.
.	.	.	.	.	.	.	8A#X\	-pi-	8A#X\	-pi-	8a#X\	-pi-	8a#X\	-pi-	.	.	.	.
!	!	!	!	!	!	!	!	!	!LO:LB:g=original	!	!LO:LB:g=original	!	!	!	!	!	!	!
.	.	.	.	.	.	.	8B\	-ta	8B\	-ta	8b\	-ta	8b\	-ta	.	.	.	.
.	.	.	.	.	.	.	8G\	in	8G\	in	8d\	in	8b\	in	.	.	.	.
.	.	.	.	.	.	.	8F#\	ter-	8F#\	ter-	8d\	ter-	8b\	ter-	.	.	.	.
.	.	.	.	.	.	.	16E#X\	-ra	16G\	-ra	16e\	-ra	16cc#\	-ra	.	.	.	.
.	.	.	.	.	.	.	16E#\	mul-	16G\	mul-	16d\	mul-	16b\	mul-	.	.	.	.
!	!	!	!	!	!	!	!	!	!	!	!	!	!	!	!	!	!LO:LB:g=original	!
=44	=44	=44	=44	=44	=44	=44	=44	=44	=44	=44	=44	=44	=44	=44	=44	=44	=44	=44
8r	.	.	8r	.	8r	.	8F#\	-to-	8F#/	-to-	8d\	-to-	8b\	-to-	.	.	8F#/L	8f#\L
8F#\L	#_	.	8a#/L	.	8cc#\L	.	8F#\	-rum	8F#/	-rum	8c#\	-rum	8a\	-rum	.	.	8F#/J	8f#\J
8F#\	.	.	8a#/	.	8cc#\	.	8F#\	De	8f#\	De	8a#X\	De	8cc#\	de	.	.	2F#/	2f#\
!	!	!	!	!	!	!	!LO:SIC:v:l:s=tor-	!	!LO:SIC:v:l:s=tor-	!	!LO:SIC:v:l:s=tor-	!	!LO:SIC:v:l:s=tor-	!	!	!	!	!
8F#\J	.	.	8a#/J	.	8cc#\J	.	8F#\	to-	8f#\	to-	8a#\	to-	8cc#\	to-	.	.	.	.
*tremolo	*	*	*	*	*	*	*	*	*	*	*	*	*	*	*	*	*	*
8F#\L	6_ 4_	.	8b\L	.	8dd\L	.	4F#\	-ren-	4f#\	-ren-	8b\L	-ren-	8dd\L	-ren-	.	.	.	.
8F#\	.	.	16a#\L	.	16cc#\L	.	.	.	.	.	16a#\L	.	16cc#\L	.	.	.	.	.
.	.	.	16b\JJ	.	16dd\JJ	.	.	.	.	.	16b\JJ	.	16dd\JJ	.	.	.	.	.
8F#\	7 5	.	8cc#\L	.	8ee\L	.	8F#\	-te	8f#\	-te	8cc#\	-te	8ee\	-te	.	.	4r	4r
8F#\J	6 4	.	8b\J	.	8dd\J	.	8F#\	in	8f#\	in	8b\	in	8dd\	in	.	.	.	.
=45	=45	=45	=45	=45	=45	=45	=45	=45	=45	=45	=45	=45	=45	=45	=45	=45	=45	=45
8F#\L	6_ 4_	.	8b\L	.	8dd\L	.	4F#\	vi-	4f#\	vi-	8.b\L	vi-	8dd\L	vi-	0r	0r	1F#	1f#
!	!	!	!LO:SIC:v:s=16a#\L	!	!	!	!	!	!	!	!	!	!	!	!	!	!	!
8F#\	.	.	16a\L	.	16cc#\L	.	.	.	.	.	.	.	16cc#\L	.	.	.	.	.
.	.	.	16b\JJ	.	16dd\JJ	.	.	.	.	.	32a#X\LL	.	16dd\JJ	.	.	.	.	.
.	.	.	.	.	.	.	.	.	.	.	32b\JJJ	.	.	.	.	.	.	.
!	!	!	!LO:SIC:v:s=8a#\L	!	!	!	!	!	!	!	!	!	!	!	!	!	!	!
8F#\	.	.	8a\L	.	8cc#\L	.	8F#\	-a	4f#\	-a	8a#\	-a	8cc#\	-a	.	.	.	.
!	!	!	!LO:SIC:v:s=8a#\J	!	!	!	!	!	!	!	!	!	!	!	!	!	!	!
8F#\J	5 2	.	8a\J	.	8cc#\J	.	8F#\	in	.	.	8a#\	in	8cc#\	in	.	.	.	.
!	!	!	!	!	!LO:LB:g=original	!	!LO:LB:g=original	!	!	!	!	!	!	!	!	!	!	!
8F#\L	6 4	.	8b\L	.	8dd\L	.	4.F#\	vi-	4.f#\	bi-	(8b\L	vi-	8dd\L	vi-	.	.	.	.
!	!	!	!LO:SIC:v:s=16a#\L	!	!	!	!	!	!	!	!	!	!	!	!	!	!	!
8F#\	.	.	16a\L	.	16cc#\L	.	.	.	.	.	16a#\L	.	16cc#\L	.	.	.	.	.
.	.	.	16b\JJ	.	16dd\JJ	.	.	.	.	.	16b\JJ	.	16dd\JJ	-[[a]]-	.	.	.	.
8F#\	7 5	.	8cc#\L	.	8ee\L	.	.	.	.	.	8cc#\)	-a	8ee\	-a	.	.	.	.
8F#\J	6 4	.	8b\J	.	8dd\J	.	8F#\	-a	8f#\	-bet	8b\	.	8dd\	.	.	.	.	.
*Xtremolo	*	*	*	*	*	*	*	*	*	*	*	*	*	*	*	*	*	*
=46	=46	=46	=46	=46	=46	=46	=46	=46	=46	=46	=46	=46	=46	=46	=46	=46	=46	=46
!LO:TX:t=P:problem=mixed beam	!	!	!	!	!	!	!	!	!	!	!	!	!	!	!	!	!	!
8F#\L	6 4	.	8b\L	.	8dd\L	.	8F#\	bi-	8f#\	bi-	8b\	bi-	8dd\	bi-	.	.	8F#/L	8f#\L
!	!	!	!LO:SIC:v:s=8a#\J	!	!	!	!	!	!	!	!	!	!	!	!	!	!	!
8FF#/J	3 #	.	8a\J	.	8cc#\J	.	8F#\	-bet	8f#\	-bet	8a#X\	-bet	8cc#\	-bet	.	.	8F#/J	8f#\J
!	!	!	!LO:SIC:v:s=16a#\LL	!	!	!	!	!	!	!	!	!	!	!	!	!	!	!
8r	.	.	16a\LL	.	16a#X\LL	.	8r	.	8r	.	8r	.	8r	.	.	.	4r	4r
.	.	.	16cc#\	.	16cc#\	.	.	.	.	.	.	.	.	.	.	.	.	.
8A#X\	6	.	16ff#\	.	16ff#\	.	8A#X\	pro-	8f#\	pro-	8cc#\	pro-	16ff#\LL	pro-	.	.	.	.
.	5	.	16ee\JJ	.	16ee\JJ	.	.	.	.	.	.	.	16ee\JJ	.	.	.	.	.
!	!	!	!	!	!	!	!	!	!LO:LB:g=original	!	!	!	!LO:LB:g=original	!	!	!	!	!
8B\L	#3r	.	8dd#X\L	.	8dd#X\L	.	8B\L	-pte-	(4B\	-pte-	(4f#\	-pte-	8dd#X\L	-pter-	.	.	2r	2r
8An\J	#4r 2	.	16cc#\L	.	16cc#\L	.	8An\J	.	.	.	.	.	16cc#\L	.	.	.	.	.
.	.	.	16dd#\JJ	.	16dd#\JJ	.	.	.	.	.	.	.	16dd#\JJ	.	.	.	.	.
8G\L	6	.	8ee\L	.	8ee\L	.	8G\L	.	4e\)	.	4b\)	.	8ee\L	.	.	.	.	.
16F#\L	n5r	.	8ddn\J	.	8ddn\J	.	16F#\L	.	.	.	.	.	8ddn\J	.	.	.	.	.
16G\JJ	.	.	.	.	.	.	16G\JJ	.	.	.	.	.	.	.	.	.	.	.
!LO:LB:g=original	!	!	!LO:LB:g=original	!	!	!	!	!	!	!	!LO:LB:g=original	!	!	!	!	!	!	!
=47	=47	=47	=47	=47	=47	=47	=47	=47	=47	=47	=47	=47	=47	=47	=47	=47	=47	=47
!	!	!	!	!	!	!	!	!	!	!	!	!	!	!	!	!	!LO:TX:a:t=1	!LO:TX:a:t=1
8A\L	3_	.	8cc#\L	.	8cc#\L	.	8A'\L	.	(4A\	.	4e\	.	8cc#\L	.	1r	1r	1r	1r
8G\J	.	.	16b\L	.	16b\L	.	8G\J	.	.	.	.	.	16b\L	.	.	.	.	.
.	.	.	16cc#\JJ	.	16cc#\JJ	.	.	.	.	.	.	.	16cc#\JJ	.	.	.	.	.
8F#\L	6	.	8dd\L	.	8dd\L	.	8F#\L	.	4d\)	.	4an\	.	8dd\L	.	.	.	.	.
16E\L	r5n	.	8ccn\J	.	8ccn\J	.	16E\L	.	.	.	.	.	8ccn\J	.	.	.	.	.
16F#\JJ	.	.	.	.	.	.	16F#\JJ	.	.	.	.	.	.	.	.	.	.	.
*	*	*	*	*	*	*	*	*	*2\right	*	*	*	*	*	*	*	*	*
8G\L	6_	.	16b\LL	.	16b\LL	.	2G\	.	2B\	.	4d\	.	4b\	.	.	.	.	.
.	.	.	16dd\	.	16dd\	.	.	.	.	.	.	.	.	.	.	.	.	.
8G\	.	.	16ee\	.	16ee\	.	.	.	.	.	.	.	.	.	.	.	.	.
.	.	.	16ff#\JJ	.	16ff#\JJ	.	.	.	.	.	.	.	.	.	.	.	.	.
8G\	6	.	16gg\LL	.	16gg\LL	.	.	.	.	.	16b\LL	.	16gg\LL	.	.	.	.	.
.	.	.	16ff#\	.	16ff#\	.	.	.	.	.	16a\	.	16ff#\	.	.	.	.	.
8G\J	5	.	16ee\	.	16ee\	.	.	.	.	.	16g\	.	16ee\	.	.	.	.	.
.	.	.	16dd\JJ	.	16dd\JJ	.	.	.	.	.	16f#\JJ	.	16dd\JJ	.	.	.	.	.
!	!	!	!	!	!	!	!	!	!	!	!	!	!	!	!LO:LB:g=original	!	!	!
=48	=48	=48	=48	=48	=48	=48	=48	=48	=48	=48	=48	=48	=48	=48	=48	=48	=48	=48
8A\L	.	.	16dd\LL	.	16dd\LL	.	8A\	-re-	8A\	-re-	16f#\LL	-re-	16dd\LL	-re-	8AA/L	8a/L	2A/	2e\
.	.	.	16cc#X\J	.	16cc#X\J	.	.	.	.	.	16e\JJ	.	16cc#X\JJ	.	.	.	.	.
8A\	.	.	8cc#\J	.	8cc#\J	.	8A\	-a	8A\	-a	8e\	-a	8cc#\	-a	16AA/L	16a/L	.	.
.	.	.	.	.	.	.	.	.	.	.	.	.	.	.	16AA/JJ	16a/JJ	.	.
8G\	4 2	.	16a\LL	.	16a\LL	.	8G\	e-	8c#\	e-	8a\	e-	8ee\	e-	8AA/L	8a/L	.	.
.	.	.	16cc#\	.	16cc#\	.	.	.	.	.	.	.	.	.	.	.	.	.
8G\J	.	.	16ee\	.	16ee\	.	8G\	-xal-	8c#\	-xal-	8a\	-xal-	8ee\	-xal-	8AA/J	8a/J	.	.
.	.	.	16cc#\JJ	.	16cc#\JJ	.	.	.	.	.	.	.	.	.	.	.	.	.
!	!	!	!LO:TX:t=P:problem=mixed beam	!	!	!	!	!	!	!	!	!	!	!	!	!	!	!
8F#\L	6	.	8dd\L	.	8dd\	.	8F#\	-ta-	8d\	-ta-	8f#\	-ta-	8dd\	-ta-	4D/	4dd\	4.d\	4f#\
8B\	.	.	8f#/J	.	4dd\	.	8B\	-bit	8B\	-bit	8f#\	-bit	8dd\	-bit	.	.	.	.
8G\	6 5	.	4f#/	.	.	.	8G\L	ca-	8B\L	ca-	4e\	ca-	8dd\L	ca-	8r	8r	.	4e\
8A\J	.	.	.	.	8cc#m\	.	8A\J	.	8A\J	.	.	.	8cc#\J	.	8AA/	8a/	8A/	.
!	!	!	!	!	!LO:LB:g=original	!	!	!	!	!	!	!	!	!	!	!	!	!
=49	=49	=49	=49	=49	=49	=49	=49	=49	=49	=49	=49	=49	=49	=49	=49	=49	=49	=49
!LO:TX:a:i:t=Solo	!	!	!	!	!	!	!	!	!	!	!	!	!	!	!	!	!	!
4D\	.	.	4f#/	.	16dd\LL	.	4D\	-put	4A\	-put	4f#\	-put	4dd\	-put	4D/	4d/	4F#/	4d\
.	.	.	.	.	16a\	.	.	.	.	.	.	.	.	.	.	.	.	.
.	.	.	.	.	16ff#\	.	.	.	.	.	.	.	.	.	.	.	.	.
.	.	.	.	.	16dd\JJ	.	.	.	.	.	.	.	.	.	.	.	.	.
8r	.	.	8r	.	16a\LL	.	4r	.	4r	.	4r	.	4r	.	4r	4r	4r	4r
.	.	.	.	.	16dd\	.	.	.	.	.	.	.	.	.	.	.	.	.
8D\	.	.	8a/	.	16ff#\	.	.	.	.	.	.	.	.	.	.	.	.	.
.	.	.	.	.	16aa\JJ	.	.	.	.	.	.	.	.	.	.	.	.	.
!LO:TX:t=P:problem=mixed beam	!	!	!	!	!	!	!	!	!	!	!	!	!	!	!	!	!	!
8G\L	.	.	8b/L	.	8gg\L	.	2r	.	2r	.	2r	.	2r	.	2r	2r	2r	2r
*	*	*	*tuplet	*	*	*	*	*	*	*	*	*	*	*	*	*	*	*
!	!	!	!LO:TUP:b:problem=klamra łukowa	!	!	!	!	!	!	!	!	!	!	!	!	!	!	!
8G\	6	.	24b/L	.	24gg\L	.	.	.	.	.	.	.	.	.	.	.	.	.
.	.	.	24a/	.	24ff#\	.	.	.	.	.	.	.	.	.	.	.	.	.
.	.	.	24g/JJ	.	24ee\JJ	.	.	.	.	.	.	.	.	.	.	.	.	.
8A\	4	.	8f#/L	.	8dd\L	.	.	.	.	.	.	.	.	.	.	.	.	.
8AA/J	3	.	8e/J	.	8cc#\J	.	.	.	.	.	.	.	.	.	.	.	.	.
=50	=50	=50	=50	=50	=50	=50	=50	=50	=50	=50	=50	=50	=50	=50	=50	=50	=50	=50
*tremolo	*	*	*	*	*	*	*	*	*	*	*	*	*	*	*	*	*	*
!	!	!	!	!	!	!	!LO:TX:a:t=3	!	!LO:TX:a:t=3	!	!	!	!	!	!LO:TX:a:t=3	!LO:TX:a:t=3	!	!LO:TX:a:i:t=Solo
8D\L	.	.	4f#/	.	4dd\	.	0r	.	0r	.	8r	.	8r	.	0r	0r	8r	8r
!	!	!	!	!	!	!	!	!	!	!	!LO:TX:a:i:t=Solo	!	!	!	!	!	!	!
8D\	.	.	.	.	.	.	.	.	.	.	8f#\	Glo-	8dd\	Glo-	.	.	8d\	8f#\
8D\	.	.	4r	.	4r	.	.	.	.	.	8a\	-ri-	8ff#\	-ri-	.	.	8f#\L	8a\L
8D\J	.	.	.	.	.	.	.	.	.	.	16g\LL	-a	16ee\LL	-a	.	.	16e\L	16g\L
.	.	.	.	.	.	.	.	.	.	.	16f#\JJ	.	16dd\JJ	.	.	.	16d\JJ	16f#\JJ
*Xtremolo	*	*	*	*	*	*	*	*	*	*	*	*	*	*	*	*	*	*
!LO:TX:t=P:problem=mixed beam	!	!	!	!	!	!	!	!	!	!	!	!	!	!	!	!	!	!
8A\L	4_	.	2r	.	2r	.	.	.	.	.	8.f#\L	pa-	8.dd\L	pa-	.	.	8.d\L	8.f#\L
8A\	.	.	.	.	.	.	.	.	.	.	.	.	.	.	.	.	.	.
!	!	!	!	!	!	!	!	!	!	!	!LO:N:vis=16	!	!	!	!	!	!	!
.	.	.	.	.	.	.	.	.	.	.	32e\LL	.	32cc#\LL	.	.	.	32A\LL	32e\LL
!	!	!	!	!	!	!	!	!	!	!	!LO:N:vis=16	!	!	!	!	!	!	!
.	.	.	.	.	.	.	.	.	.	.	32f#\JJJ	.	32dd\JJJ	.	.	.	32d\JJJ	32f#\JJJ
8AA/	.	.	.	.	.	.	.	.	.	.	8e\	-tri	8cc#\	-tri	.	.	8A\L	8e\L
8AA/J	3	.	.	.	.	.	.	.	.	.	8g\	et	8ee\	et	.	.	8d\J	8g\J
!	!	!	!	!	!LO:PB:g=original	!	!	!	!	!	!	!	!LO:LB:g=original	!	!	!	!	!
=51	=51	=51	=51	=51	=51	=51	=51	=51	=51	=51	=51	=51	=51	=51	=51	=51	=51	=51
!	!	!	!LO:TX:a:t=2	!	!LO:TX:a:t=2	!	!	!	!	!	!	!	!	!	!	!	!	!
8D\L	9 4	.	0r	.	0r	.	.	.	.	.	8g\	fi-	8ee\	fi-	.	.	8e\L	8.g\L
8D\	.	.	.	.	.	.	.	.	.	.	16f#\LL	-li-	16dd\LL	-li-	.	.	16d\L	.
.	.	.	.	.	.	.	.	.	.	.	16g\JJ	-o	16ee\JJ	.	.	.	16e\JJ	32f#\LL
.	.	.	.	.	.	.	.	.	.	.	.	.	.	.	.	.	.	32g\JJJ
8D\	8 3	.	.	.	.	.	.	.	.	.	8f#\	et	8dd\	-o	.	.	8d\L	8f#\L
8D\J	.	.	.	.	.	.	.	.	.	.	8a\	.	8ff#\	et	.	.	8f#\J	8a\J
!	!	!	!	!	!	!	!	!	!	!	!LO:LB:g=original	!	!	!	!	!	!	!LO:LB:g=original
8G\L	3_	.	.	.	.	.	.	.	.	.	(8b\L	Spi-	8gg\L	Spi-	.	.	8g\L	8b\L
8G\	.	.	.	.	.	.	.	.	.	.	8a\	.	8ff#\	.	.	.	8f#\	8a\
8G\	5_	.	.	.	.	.	.	.	.	.	8g\	.	8ee\	.	.	.	8e\	8g\
8G#X\J	5	.	.	.	.	.	.	.	.	.	8f#\J)	.	8dd\J	.	.	.	8d\J	8f#\J
!LO:LB:g=original	!	!	!	!	!	!	!	!	!	!	!	!	!	!	!	!	!LO:LB:g=original	!
=52	=52	=52	=52	=52	=52	=52	=52	=52	=52	=52	=52	=52	=52	=52	=52	=52	=52	=52
8A\L	.	.	.	.	.	.	1r	.	1r	.	8e\	-ri-	4cc#\	-ri-	1r	1r	4A/	4e\
8Gn\	4 2	.	.	.	.	.	.	.	.	.	8f#\	-tu-	.	.	.	.	.	.
8F#\	6	.	.	.	.	.	.	.	.	.	8g\	.	8dd\	-tu-	.	.	8d\L	8f#\L
8G\J	6	.	.	.	.	.	.	.	.	.	8f#\	-i	8ee\	-i	.	.	8e\J	8g\J
!	!	!	!	!	!	!	!	!	!	!	!LO:SIC:v:l:s=san-	!	!	!	!	!	!	!
8F#\L	6	.	.	.	.	.	.	.	.	.	(4f#\	sa-	(4dd\	san-	.	.	4.d\	4f#\
8B\	.	.	.	.	.	.	.	.	.	.	.	.	.	.	.	.	.	.
!	!	!	!	!	!	!	!	!	!	!	!	!	!LO:N:vis=8	!	!	!	!	!
8G\	6 5	.	.	.	.	.	.	.	.	.	4e\)	.	4cc#\)	.	.	.	.	4e\
8A\J	.	.	.	.	.	.	.	.	.	.	.	.	.	.	.	.	8A/	.
!	!	!	!	!	!	!	!LO:LB:g=original	!	!	!	!	!	!	!	!	!	!	!
=53	=53	=53	=53	=53	=53	=53	=53	=53	=53	=53	=53	=53	=53	=53	=53	=53	=53	=53
!	!	!	!LO:TX:t=P:problem=mixed beam	!	!LO:TX:t=P:problem=mixed beam	!	!	!	!	!	!	!	!	!	!	!	!	!
8D\L	.	.	8dd\L	.	8ff#L 8a 8d\	.	2r	.	2r	.	4f#\	-cto	4dd\	-cto	4D\	4dd\	4F#/	4d\
(32D\LL	.	.	32d/LL	.	32d/LL	.	.	.	.	.	.	.	.	.	.	.	.	.
32E\	.	.	32e/	.	32e/	.	.	.	.	.	.	.	.	.	.	.	.	.
32F#\	.	.	32f#/	.	32f#/	.	.	.	.	.	.	.	.	.	.	.	.	.
32G\JJJ)	.	.	32g/JJJ	.	32g/JJJ	.	.	.	.	.	.	.	.	.	.	.	.	.
8A\L	.	.	8a\L	.	8a\L	.	.	.	.	.	4r	.	4r	.	4r	4r	4r	4r
8G\J	4 2	.	24a\L	.	24a\L	.	.	.	.	.	.	.	.	.	.	.	.	.
.	.	.	24b\	.	24b\	.	.	.	.	.	.	.	.	.	.	.	.	.
.	.	.	24b\JJ	.	24cc#\JJ	.	.	.	.	.	.	.	.	.	.	.	.	.
!	!	!	!LO:LB:g=original	!	!	!	!	!	!	!	!	!	!	!	!	!	!	!
4F#\	6	.	4dd\	.	4dd\	.	8r	.	8r	.	8r	.	8r	.	8r	8r	8r	8r
.	.	.	.	.	.	.	8D\L	Si-	4A\	Si-	(16f#\LL	si-	(16dd\LL	si-	8D\L	8dd\L	16d\LL	16f#\LL
.	.	.	.	.	.	.	.	.	.	.	16a\JJ	.	16ff#\JJ	.	.	.	16f#\JJ	16a\JJ
8r	.	.	8r	.	8r	.	8A\J	.	.	.	16a\LL	.	16ff#\LL]	.	8AA\	8a\	16f#\LL	16a\LL
.	.	.	.	.	.	.	.	.	.	.	16g\JJ)	.	16dd\JJ)	.	.	.	16e\	16g\
8AA/	.	.	8cc#\	.	8ee\	.	8AA/	-cut	8A\	-cut	16f#\LL	-cut	16dd\LL	-cut	8AA\J	8a\J	16d\	16f#\
.	.	.	.	.	.	.	.	.	.	.	16e\JJ	.	16cc#\JJ	.	.	.	16A\JJ	16e\JJ
=54	=54	=54	=54	=54	=54	=54	=54	=54	=54	=54	=54	=54	=54	=54	=54	=54	=54	=54
!	!	!	!	!	!LO:TX:t=P:problem=mixed beam	!	!	!	!	!	!	!	!	!	!	!	!	!
!	!	!	!LO:TX:t=P:problem=mixed beam	!	!LO:TX:t=P:problem=takt nr 54 zapisany repetycją	!	!	!	!	!	!	!	!	!	!	!	!	!LO:TX:t=P:problem=takt nr 54 zapisany repetycją
8D\L	.	.	8dd\L	.	8ff#Lyy 8ayy 8d\yy	.	8D\	e-	8A\	e-	8f#\	e-	8dd\	e-	4D\	4d/	4F#/	4d\yy
(32D\LL	.	.	32d/LL	.	32d/LLyy	.	8D\	-rat	8A\	-rat	8f#\	-rat	8dd\	-rat	.	.	.	.
32E\	.	.	32e/	.	32e/yy	.	.	.	.	.	.	.	.	.	.	.	.	.
32F#\	.	.	32f#/	.	32f#/yy	.	.	.	.	.	.	.	.	.	.	.	.	.
32G\JJJ)	.	.	32g/JJJ	.	32g/JJJyy	.	.	.	.	.	.	.	.	.	.	.	.	.
8A\L	.	.	8a\L	.	8a\Lyy	.	4r	.	4r	.	4r	.	4r	.	4r	4r	4r	4ryy
*	*	*	*Xtuplet	*	*	*	*	*	*	*	*	*	*	*	*	*	*	*
8G\J	4 2	.	24a\L	.	24a\Lyy	.	.	.	.	.	.	.	.	.	.	.	.	.
.	.	.	24b\	.	24b\yy	.	.	.	.	.	.	.	.	.	.	.	.	.
.	.	.	24cc#\JJ	.	24cc#\JJyy	.	.	.	.	.	.	.	.	.	.	.	.	.
!	!	!	!	!	!	!	!	!	!LO:LB:g=original	!	!	!	!	!	!	!	!	!
4F#\	6	.	4dd\	.	4dd\yy	.	8r	.	8r	.	8r	.	8r	.	8r	8r	8r	8ryy
*	*	*	*	*	*	*	*	*ij	*	*ij	*	*ij	*	*ij	*	*	*	*
.	.	.	.	.	.	.	8D\L	Si-	4A\	Si-	16f#\LL	si-	16dd\LL	si-	8D\L	8dd\L	16d\LL	16f#\LLyy
.	.	.	.	.	.	.	.	.	.	.	16a\JJ	.	16ff#\JJ	.	.	.	16f#\JJ	16a\JJyy
8r	.	.	8r	.	8ryy	.	8A\J	.	.	.	16a\LL	.	16ff#\LL	-cut	8AA\	8a\	16f#\LL	16a\LLyy
.	.	.	.	.	.	.	.	.	.	.	16g\JJ	.	16ee\	.	.	.	16e\	16g\yy
8AA/	3 4	.	8cc#\	.	8ee\yy	.	8AA/	-cut	8A\	-cut	16f#\LL	-cut	16dd\	.	8AA\J	8a\J	16d\	16f#\yy
.	.	.	.	.	.	.	.	.	.	.	16e\JJ	.	16cc#\JJ	.	.	.	16A\JJ	16e\JJyy
=55	=55	=55	=55	=55	=55	=55	=55	=55	=55	=55	=55	=55	=55	=55	=55	=55	=55	=55
!	!	!	!LO:TX:t=P:problem=mixed beam	!	!	!	!	!	!	!	!	!	!	!	!	!	!	!
4D\	.	.	8dd\L	.	8dd\L	.	8D\	e-	8A\	e-	8f#\	e-	8dd\	e-	4D\	4d/	4F#/	4d\
.	.	.	32d/LL	.	32f#\LL	.	8D\	-rat	8A\	-rat	8f#\	-rat	8dd\	-rat	.	.	.	.
*	*	*	*	*	*	*	*	*	*	*	*	*Xij	*	*	*	*	*	*
.	.	.	32e/	.	32g\	.	.	.	.	.	.	.	.	.	.	.	.	.
.	.	.	32f#/	.	32a\	.	.	.	.	.	.	.	.	.	.	.	.	.
.	.	.	32e/JJJ	.	32g\JJJ	.	.	.	.	.	.	.	.	.	.	.	.	.
4r	.	.	8d/L	.	8f#\L	.	4r	.	4r	.	4r	.	4r	.	4r	4r	4r	4r
.	.	.	32f#/LL	.	32dd\LL	.	.	.	.	.	.	.	.	.	.	.	.	.
.	.	.	32g/	.	32ee\	.	.	.	.	.	.	.	.	.	.	.	.	.
.	.	.	32a/	.	32ff#\	.	.	.	.	.	.	.	.	.	.	.	.	.
.	.	.	32g/JJJ	.	32ee\JJJ	.	.	.	.	.	.	.	.	.	.	.	.	.
*tremolo	*	*	*	*	*	*	*	*	*	*	*	*	*	*	*	*	*	*
8D\L	.	.	8f#/L	.	16dd\LL	.	4D\	Si-	4d\	Si-	4a\	si-	4ff#\	si-	8D\L	8d/L	4d\	4f#\
.	.	.	.	.	16a\	.	.	.	.	.	.	.	.	.	.	.	.	.
8D\	.	.	8a/	.	16ff#\	.	.	.	.	.	.	.	.	.	16D\L	16d/L	.	.
.	.	.	.	.	16dd\JJ	.	.	.	.	.	.	.	.	.	16D\JJ	16d/JJ	.	.
!	!	!	!	!	!	!	!	!	!	!	!	!	!	!	!LO:N:vis=4	!	!	!
8D\	.	.	8a/	.	16aa\LL	.	4D\	-cut	4d\	-cut	4a\	-cut	4ff#\	-cut	8D\L	8d/L	4f#\	4a\
.	.	.	.	.	16ff#\	.	.	.	.	.	.	.	.	.	.	.	.	.
!	!	!	!	!	!	!	!	!	!	!	!	!	!	!	!LO:N:vis=4	!	!	!
8D\J	.	.	8a/J	.	16ff#\	.	.	.	.	.	.	.	.	.	8D\J	8d/J	.	.
.	.	.	.	.	16dd\JJ	.	.	.	.	.	.	.	.	.	.	.	.	.
!	!	!	!	!	!	!	!	!	!	!	!LO:LB:g=original	!	!	!	!	!LO:LB:g=original	!	!
=56	=56	=56	=56	=56	=56	=56	=56	=56	=56	=56	=56	=56	=56	=56	=56	=56	=56	=56
*	*	*	*tremolo	*	*	*	*	*	*	*	*	*	*	*	*	*	*	*
8D\L	6 4	.	8b\L	.	16b\LL	.	8D\	e-	4d\	e-	4b\	e-	4gg\	e-	8D\L	8d/L	2g\	2b\
.	.	.	.	.	16dd\	.	.	.	.	.	.	.	.	.	.	.	.	.
8D\	.	.	8b\	.	16gg\	.	8D\	-rat	.	.	.	.	.	.	16D\L	16d/L	.	.
*	*	*	*	*	*	*	*	*Xij	*	*	*	*	*	*	*	*	*	*
.	.	.	.	.	16dd\JJ	.	.	.	.	.	.	.	.	.	16D\JJ	16d/JJ	.	.
8D\	.	.	8b\	.	16bb\LL	.	8D\	in	8d\	-rat	8b\	-rat	8gg\	-rat	8D\L	8d/L	.	.
*	*	*	*	*	*	*	*	*	*	*Xij	*	*	*	*Xij	*	*	*	*
.	.	.	.	.	16gg\	.	.	.	.	.	.	.	.	.	.	.	.	.
8D\J	.	.	8b\J	.	16gg\	.	8D\	prin-	8d\	in	8b\	in	8gg\	in	8D\J	8d/J	.	.
.	.	.	.	.	16dd\JJ	.	.	.	.	.	.	.	.	.	.	.	.	.
!	!	!	!	!	!LO:LB:g=original	!	!	!	!	!	!	!	!LO:LB:g=original	!	!	!	!	!
8D\L	5 3	.	8a\L	.	16a\LL	.	8D\	-ci-	8d\	prin-	8a\	prin-	8ff#\	prin-	8D\L	8d/L	2f#\	2a\
.	.	.	.	.	16dd\	.	.	.	.	.	.	.	.	.	.	.	.	.
8D\	.	.	8a\	.	16ff#\	.	8D\	-pi-	8d\	-ci-	8a\	-ci-	8ff#\	-ci-	16D\L	16d/L	.	.
.	.	.	.	.	16dd\JJ	.	.	.	.	.	.	.	.	.	16D\JJ	16d/JJ	.	.
8D\	.	.	8a\	.	16aa\LL	.	8D\	-o	8d\	-pi-	8b\	-pi-	8ff#\	-pi-	8D\L	8d/L	.	.
.	.	.	.	.	16ff#\	.	.	.	.	.	.	.	.	.	.	.	.	.
8D\J	.	.	8a\J	.	16ff#\	.	8D\	et	8d\	-o	8b\	-o	8ff#\	-o	8D\J	8d/J	.	.
.	.	.	.	.	16dd\JJ	.	.	.	.	.	.	.	.	.	.	.	.	.
*	*	*	*Xtremolo	*	*	*	*	*	*	*	*	*	*	*	*	*	*	*
!	!	!	!	!	!	!	!	!	!	!	!	!	!	!	!LO:LB:g=original	!	!	!
=57	=57	=57	=57	=57	=57	=57	=57	=57	=57	=57	=57	=57	=57	=57	=57	=57	=57	=57
8AA/L	.	.	8g/L	.	16dd\LL	.	4A\	nunc	4B\	et	4g\	et	4ee\	et	8AA/L	8a/L	2e\	2g\
.	.	.	.	.	16cc#\	.	.	.	.	.	.	.	.	.	.	.	.	.
8AA/	.	.	8g/J	.	16ee\	.	.	.	.	.	.	.	.	.	16AA/L	16a/L	.	.
.	.	.	.	.	16cc#\JJ	.	.	.	.	.	.	.	.	.	16AA/JJ	16a/JJ	.	.
8AA/	.	.	8e/L	.	16a/LL	.	4A\	et	8c#\	nunc	8g\	nunc	8ee\	nunc	8AA/L	8a/L	.	.
.	.	.	.	.	16g/	.	.	.	.	.	.	.	.	.	.	.	.	.
8AA/J	.	.	16c#/L	.	16f#/	.	.	.	8c#\	et	8g\	et	8ee\	et	8AA/J	8a/J	.	.
.	.	.	16e/JJ	.	16g/JJ	.	.	.	.	.	.	.	.	.	.	.	.	.
*Xtremolo	*	*	*	*	*	*	*	*	*	*	*	*	*	*	*	*	*	*
!	!	!	!	!	!	!	!LO:LB:g=original	!	!	!	!	!	!	!	!	!LO:TX:t=P:problem=mixed beam	!	!
8D/L	4	.	8e/L	.	8g/L	.	8D\	sem-	8A\	sem-	8g\	sem-	8ee\	sem-	8D/L	8dd\L	8e\L	8g\L
8DD/J	5 3	.	8d/J	.	8f#/J	.	8D\	-per	8A\	-per	8f#\	-per	8dd\	-per	8D/J	8d/J	8d\J	8f#\J
8r	.	.	24f#/LL	.	24a\LL	.	8r	.	8r	.	8r	.	8r	.	8r	8r	8r	8r
.	.	.	24a/	.	24dd\	.	.	.	.	.	.	.	.	.	.	.	.	.
.	.	.	24dd/JJ	.	24ff#\JJ	.	.	.	.	.	.	.	.	.	.	.	.	.
8D\	10 8	.	24ff#\LL	.	24aa\LL	.	8D\	et	8d\	et	8a\	et	8ff#\	et	8D/	8d/	8d\	8f#\
.	.	.	24ee\	.	24gg\	.	.	.	.	.	.	.	.	.	.	.	.	.
.	.	.	24dd\JJ	.	24ff#\JJ	.	.	.	.	.	.	.	.	.	.	.	.	.
!LO:LB:g=original	!	!	!LO:LB:g=original	!	!	!	!	!	!LO:LB:g=original	!	!	!	!	!	!	!	!	!
=58	=58	=58	=58	=58	=58	=58	=58	=58	=58	=58	=58	=58	=58	=58	=58	=58	=58	=58
!LO:TX:t=P:problem=mixed beam	!	!	!	!	!	!	!	!	!	!	!	!	!	!	!	!	!	!
8A\L	4	.	24dd\LL	.	24ff#\LL	.	8A\	sem-	8d\	sem-	8a\	sem-	8ff#\	sem-	8AA/L	8a/L	8d\L	8f#\L
.	.	.	24cc#\	.	24ee\	.	.	.	.	.	.	.	.	.	.	.	.	.
.	.	.	24dd\J	.	24ff#\J	.	.	.	.	.	.	.	.	.	.	.	.	.
8AA/J	3	.	8cc#\J	.	8ee\J	.	8AA/	-per	8c#\	-per	8a\	-per	8ee\	-per	8AA/J	8a/J	8A\J	8e\J
8r	.	.	24cc#\LL	.	24ee\LL	.	8r	.	8r	.	8r	.	8r	.	8r	8r	8r	8r
.	.	.	24a\	.	24cc#\	.	.	.	.	.	.	.	.	.	.	.	.	.
.	.	.	24b\JJ	.	24dd\JJ	.	.	.	.	.	.	.	.	.	.	.	.	.
8C#/	6 5	.	24cc#\LL	.	24ee\LL	.	16A\	et	16c#\	et	16g\	et	16ee\	et	8AA/	8a/	8e\L	8g\
.	.	.	24dd\	.	24ff#\	.	.	.	.	.	.	.	.	.	.	.	.	.
.	.	.	.	.	.	.	16A\	in	16c#\	in	16g\	in	16ee\	in	.	.	.	.
.	.	.	24ee\JJ	.	24gg\JJ	.	.	.	.	.	.	.	.	.	.	.	.	.
!	!	!	!	!	!	!	!	!	!	!	!	!	!	!	!	!LO:TX:t=P:problem=mixed beam	!	!
8D\L	4	.	8ee\L	.	24gg\LL	.	16d\	sae-	16A\	se-	16g\	se-	16ee\	se-	8D/L	8dd\L	8e\	8g\L
.	.	.	.	.	24ff#\	.	.	.	.	.	.	.	.	.	.	.	.	.
.	.	.	.	.	.	.	16d\	-cu-	16A\	-cu-	16g\	-cu-	16ee\	-cu-	.	.	.	.
.	.	.	.	.	24gg\J	.	.	.	.	.	.	.	.	.	.	.	.	.
8D\	3	.	8dd\J	.	8ff#\J	.	8D\	-la	8A\	-la	8f#\	-la	8dd\	-la	8D/J	8d/J	8d\J	8f#\J
8A\	.	.	16cc#\LL	.	16ee\LL	.	8A\	se-	8A\	se-	8e\	se-	8cc#\	se-	8AA/L	8a/L	4A/	4e\
.	.	.	16a\	.	16cc#\	.	.	.	.	.	.	.	.	.	.	.	.	.
8G\J	4 2	.	16b\	.	16dd\	.	8G\	-cu-	8A\	-cu-	8e\	-cu-	8cc#\	-cu-	8AA/J	8a/J	.	.
.	.	.	16cc#\JJ	.	16ee\JJ	.	.	.	.	.	.	.	.	.	.	.	.	.
!	!	!	!	!	!LO:LB:g=original	!	!	!	!	!	!	!	!	!	!	!	!	!LO:LB:g=original
=59	=59	=59	=59	=59	=59	=59	=59	=59	=59	=59	=59	=59	=59	=59	=59	=59	=59	=59
!	!	!	!LO:TX:t=P:problem=mixed beam	!	!	!	!	!	!	!	!	!	!	!	!	!	!	!
8F#\L	6	.	8dd\L	.	8ff#\	.	8F#\	-lo-	8A\	-lo-	8f#\	-lo-	8dd\	-lo-	4D/	4dd\	4d\	4f#\
8B\	.	.	8f#/J	.	4dd\	.	8B\	-rum	8B\	-rum	8f#\	-rum	8dd\	-rum	.	.	.	.
8G\	6 5	.	4e/	.	.	.	8G\L	a-	8B\L	a-	(4d\	a-	8dd\L	a-	8r	8r	4A\	4e\
8A\J	.	.	.	.	8cc#\	.	8A\J	.	8A\J	.	.	.	8cc#\J	.	8AA'/	8a/	.	.
4D\	.	.	8f#/L	.	8dd\L	.	4D\	-m(en)	4A\	-men	4f#\)	-m(en)	4dd\	-men	4D/	4d/	4F#\	4d\
.	.	.	32a/LL	.	32aa\LL	.	.	.	.	.	.	.	.	.	.	.	.	.
.	.	.	32g/	.	32gg\	.	.	.	.	.	.	.	.	.	.	.	.	.
.	.	.	32f#/	.	32ff#\	.	.	.	.	.	.	.	.	.	.	.	.	.
.	.	.	32e/JJJ	.	32ee\JJJ	.	.	.	.	.	.	.	.	.	.	.	.	.
8r	.	.	8d/L	.	8dd\L	.	8r	.	8r	.	8r	.	8r	.	8r	8r	8r	8r
*	*	*	*	*	*	*	*	*	*	*ij	*	*	*	*	*	*	*	*
!	!	!	!	!	!	!	!	!	!	!	!	!	!	!	!	!LO:N:vis=4	!	!
8A\	.	.	8e/J	.	8aaJ 8a\	.	8A\	A-	8c#\	a-	8a\	a-	8ee\	a-	8AA/	8a/	8A/	8e\
!	!	!	!	!	!	!	!	!	!	!	!LO:LB:g=original	!	!	!	!	!LO:LB:g=original	!	!
=60	=60	=60	=60	=60	=60	=60	=60	=60	=60	=60	=60	=60	=60	=60	=60	=60	=60	=60
4D\	.	.	8f#/L	.	8ff#L 8a 8d\	.	4D\	-m(en)	4d\	-men	4a\	-men	4ff#\	-(me)n	4D/	4d/	4F#/	4d\
.	.	.	32a/LL	.	32aa\LL	.	.	.	.	.	.	.	.	.	.	.	.	.
.	.	.	32g/	.	32ff#\	.	.	.	.	.	.	.	.	.	.	.	.	.
.	.	.	32f#/	.	32ee\	.	.	.	.	.	.	.	.	.	.	.	.	.
.	.	.	32e/JJJ	.	32dd\JJJ	.	.	.	.	.	.	.	.	.	.	.	.	.
8r	.	.	4f# 4A/	.	8dd\L	.	8r	.	8r	.	8r	.	8r	.	8r	8r	8r	8r
*	*	*	*	*	*	*	*	*ij	*	*	*	*	*	*	*	*	*	*
8AA/	.	.	.	.	8ggJ 8a\	.	8A\	A-	8c#\	a-	8a\	a-	8ff#\	a-	8AA/	8a/	8A/	8e\
!	!	!	!	!	!	!	!	!	!	!	!	!	!LO:N:vis=8	!	!	!	!	!
4DD/	.	.	4r	.	4ff# 4a 4d\	.	4D\	-m(en)	4d\	-men	4a\	-men	4ff#\	-m(en)	4D/	4d/	4F#/	4d\
*	*	*	*	*	*	*	*	*Xij	*	*Xij	*	*	*	*	*	*	*	*
!	!	!	!LO:TX:t=P:problem=brak pauzy 4r	!	!	!	!	!	!	!	!	!	!	!	!	!	!	!
4r	.	.	4ryy	.	4r	.	4r	.	4r	.	4r	.	4r	.	4r	4r	4r	4r
==	==	==	==	==	==	==	==	==	==	==	==	==	==	==	==	==	==	==
*-	*-	*-	*-	*-	*-	*-	*-	*-	*-	*-	*-	*-	*-	*-	*-	*-	*-	*-
!!!system-decoration: [(g1)]<s4>[(g2)][(g3)]<s11>
!!!RDF**kern: > = above
!!!RDF**kern: < = below
!!!RDF**kern: | = vertical stroke
!!!ENC: Anastazja Marusiak
!!!END: 2020-07-22
!!!ENC: Andrzej Kubiczek
!!!END: 2022-01-16
